; generated by PrusaSlicer 2.9.4 on 2026-02-26 at 00:30:50 UTC

; 

; external perimeters extrusion width = 0.42mm
; perimeters extrusion width = 0.44mm
; infill extrusion width = 0.44mm
; solid infill extrusion width = 0.44mm
; top infill extrusion width = 0.40mm
; first layer extrusion width = 0.42mm

; external perimeters extrusion width = 0.42mm
; perimeters extrusion width = 0.44mm
; infill extrusion width = 0.44mm
; solid infill extrusion width = 0.44mm
; top infill extrusion width = 0.40mm
; first layer extrusion width = 0.42mm

M201 X500 Y500 Z100 E5000 ; sets maximum accelerations, mm/sec^2
M203 X500 Y500 Z10 E60 ; sets maximum feedrates, mm / sec
M204 S500 T1000 ; sets acceleration (S) and retract acceleration (R), mm/sec^2
M205 X8.00 Y8.00 Z0.40 E5.00 ; sets the jerk limits, mm/sec
M205 S0 T0 ; sets the minimum extruding and travel feed rate, mm/sec

; printing object Pullups - Lid.stl id:0 copy 0
; stop printing object Pullups - Lid.stl id:0 copy 0
; printing object Pullups - Bracket.stl id:1 copy 0
; stop printing object Pullups - Bracket.stl id:1 copy 0

;TYPE:Custom
; Ender 3 Custom Start G-code
M190 S65 ; Preheat bed for abl
G28 ; Home all axes
G29 ; Auto bed levelling
M420 S1; Load mesh (essential to load the last mesh setting)
;*** Start Preheating ***
M190 S60 ; Heat to setting 
M109 S200 ﻿T0 ; Heat to setting
;*** End Preheating ***
G92 E0 ; Reset Extruder
G1 Z2.0 F3000 ; Move Z Axis up little to prevent scratching of Heat Bed
G1 X0.1 Y20 Z0.3 F5000.0 ; Move to start position
M300 S440 P200 ; Play chime 1
M300 S660 P250 ; Play chime 2
M300 S880 P300 ; Play chime 3
G1 X0.1 Y200.0 Z0.3 F1500.0 E15 ; Draw the first line
G1 X0.4 Y200.0 Z0.3 F5000.0 ; Move to side a little
G1 X0.4 Y20 Z0.3 F1500.0 E30 ; Draw the second line
G92 E0 ; Reset Extruder
G1 Z2.0 F3000 ; Move Z Axis up little to prevent scratching of Heat Bed
G1 X5 Y20 Z0.3 F5000.0 ; Move over to prevent blob squish
G21 ; set units to millimeters
G90 ; use absolute coordinates
M83 ; use relative distances for extrusion
; Filament gcode
M107
;LAYER_CHANGE
;Z:0.2
;HEIGHT:0.2
G1 E-.5 F3600
G1 Z.2 F9000
G1 X71.155 Y81.036
G1 E.5 F2400
M204 S500
;TYPE:Skirt/Brim
;WIDTH:0.42
G1 F900
G1 X71.763 Y80.594 E.02192
G1 X72.739 Y80.121 E.03163
G1 X73.585 Y79.894 E.02554
G1 X74.5 Y79.811 E.02679
G1 X156.667 Y79.816 E2.39595
G1 X157.415 Y79.894 E.02193
G1 X158.397 Y80.174 E.02978
G1 X159.237 Y80.594 E.02739
G1 X159.845 Y81.036 E.02192
G1 X160.583 Y81.802 E.03102
G1 X161.073 Y82.552 E.02612
G1 X161.482 Y83.557 E.03164
G1 X161.638 Y84.292 E.02191
G1 X161.684 Y125.167 E1.1919
G1 X161.458 Y126.53 E.04029
G1 X155.732 Y145.688 E.58306
G1 X155.171 Y146.948 E.04022
G1 X154.719 Y147.676 E.02499
G1 X154.194 Y148.352 E.02496
G1 X153.352 Y149.194 E.03472
G1 X152.237 Y150.004 E.04019
G1 X151.176 Y150.544 E.03471
G1 X149.538 Y151.04 E.04991
G1 X148.167 Y151.184 E.0402
G1 X83 Y151.189 E1.90024
G1 X81.979 Y151.122 E.02984
G1 X81.147 Y150.973 E.02465
G1 X79.519 Y150.409 E.05024
G1 X78.054 Y149.523 E.04992
G1 X76.815 Y148.361 E.04953
G1 X75.829 Y146.948 E.05024
G1 X75.189 Y145.457 E.04731
G1 X69.542 Y126.53 E.57594
G1 X69.327 Y125.376 E.03423
G1 X69.316 Y84.833 E1.18221
G1 X69.464 Y83.759 E.03161
G1 X69.832 Y82.739 E.03162
G1 X70.404 Y81.818 E.03161
G1 X71.114 Y81.079 E.02988
G1 E-.5 F3600
; printing object Pullups - Lid.stl id:0 copy 0
G1 X83.223 Y101.918 F9000
G1 E.5 F2400
;TYPE:Perimeter
;WIDTH:0.419999
G1 F1350
G1 X83.402 Y101.765 E.00687
G1 X83.767 Y101.636 E.01129
G1 X92.621 Y101.636 E.25818
G1 X92.927 Y101.687 E.00905
G1 X93.241 Y101.868 E.01057
G1 X93.468 Y102.165 E.0109
G1 X93.564 Y102.533 E.01109
G1 X93.564 Y115.821 E.38747
G1 X93.513 Y116.127 E.00905
G1 X93.376 Y116.387 E.00857
G1 X93.119 Y116.622 E.01015
G1 X92.729 Y116.764 E.0121
G1 X83.879 Y116.764 E.25806
G1 X83.616 Y116.727 E.00774
G1 X83.382 Y116.623 E.00747
G1 X83.126 Y116.389 E.01011
G1 X82.969 Y116.069 E.01039
G1 X82.936 Y115.821 E.0073
G1 X82.936 Y102.579 E.38613
G1 X82.974 Y102.314 E.00781
G1 X83.15 Y101.98 E.01101
G1 X83.177 Y101.957 E.00103
G1 X83.487 Y102.192 F9000
G1 F1350
G1 X83.54 Y102.125 E.00249
G1 X83.809 Y102.013 E.0085
G1 X92.621 Y102.013 E.25695
G1 X92.887 Y102.079 E.00799
G1 X93.095 Y102.269 E.00821
G1 X93.187 Y102.527 E.00799
G1 X93.187 Y115.821 E.38765
G1 X93.136 Y116.056 E.00701
G1 X92.98 Y116.259 E.00747
G1 X92.701 Y116.387 E.00895
G1 X83.879 Y116.387 E.25724
G1 X83.648 Y116.338 E.00689
G1 X83.389 Y116.104 E.01018
G1 X83.313 Y115.821 E.00854
G1 X83.313 Y102.579 E.38613
G1 X83.363 Y102.346 E.00695
G1 X83.449 Y102.239 E.004
G1 X83.74 Y102.463 F9000
;TYPE:External perimeter
G1 F900
G1 X83.749 Y102.442 E.00067
G1 X83.879 Y102.39 E.00408
G1 X92.621 Y102.39 E.25491
G1 X92.764 Y102.455 E.00458
G1 X92.81 Y102.579 E.00386
G1 X92.81 Y115.821 E.38613
G1 X92.741 Y115.967 E.00471
G1 X92.621 Y116.01 E.00372
G1 X83.879 Y116.01 E.25491
G1 X83.779 Y115.982 E.00303
G1 X83.69 Y115.844 E.00479
G1 X83.69 Y102.579 E.3868
G1 X83.716 Y102.518 E.00193
G1 E-.5 F3600
G1 X121.707 Y97.92 F9000
G1 E.5 F2400
;TYPE:Perimeter
G1 F1350
G1 X121.713 Y97.911 E.00032
G1 X122.005 Y97.713 E.01029
G1 X122.379 Y97.636 E.01113
G1 X151.121 Y97.636 E.8381
G1 X151.484 Y97.708 E.01079
G1 X151.753 Y97.879 E.00929
G1 X151.975 Y98.179 E.01088
G1 X152.064 Y98.579 E.01195
G1 X152.064 Y116.821 E.53193
G1 X151.976 Y117.22 E.01191
G1 X151.755 Y117.52 E.01087
G1 X151.486 Y117.691 E.00929
G1 X151.121 Y117.764 E.01085
G1 X122.379 Y117.764 E.8381
G1 X122.095 Y117.721 E.00838
G1 X121.849 Y117.601 E.00798
G1 X121.592 Y117.34 E.01068
G1 X121.467 Y117.063 E.00886
G1 X121.436 Y116.821 E.00711
G1 X121.436 Y98.579 E.53193
G1 X121.506 Y98.223 E.01058
G1 X121.673 Y97.97 E.00884
G1 X121.989 Y98.192 F9000
G1 F1350
G1 X122.058 Y98.112 E.00308
G1 X122.328 Y98.013 E.00839
G1 X151.121 Y98.013 E.83959
G1 X151.339 Y98.056 E.00648
G1 X151.574 Y98.239 E.00869
G1 X151.687 Y98.484 E.00787
G1 X151.687 Y116.821 E.5347
G1 X151.634 Y117.06 E.00714
G1 X151.501 Y117.241 E.00655
G1 X151.234 Y117.387 E.00887
G1 X122.379 Y117.387 E.8414
G1 X122.131 Y117.33 E.00742
G1 X121.948 Y117.188 E.00675
G1 X121.813 Y116.93 E.00849
G1 X121.813 Y98.579 E.53511
G1 X121.872 Y98.327 E.00755
G1 X121.95 Y98.238 E.00345
G1 X122.244 Y98.463 F9000
;TYPE:External perimeter
G1 F900
G1 X122.258 Y98.434 E.00094
G1 X122.379 Y98.39 E.00375
G1 X151.121 Y98.39 E.8381
G1 X151.248 Y98.439 E.00397
G1 X151.31 Y98.579 E.00446
G1 X151.31 Y116.821 E.53193
G1 X151.248 Y116.961 E.00446
G1 X151.121 Y117.01 E.00397
G1 X122.379 Y117.01 E.8381
G1 X122.235 Y116.944 E.00462
G1 X122.19 Y116.821 E.00382
G1 X122.19 Y98.575 E.53204
G1 X122.218 Y98.517 E.00188
G1 E-.5 F3600
G1 X156.687 Y84.123 F9000
G1 E.5 F2400
;TYPE:Perimeter
G1 F1350
G1 X156.902 Y84.164 E.00638
G1 X157.191 Y84.377 E.01047
G1 X157.375 Y84.689 E.01056
G1 X157.436 Y85.163 E.01394
G1 X157.436 Y125.116 E1.16501
G1 X157.249 Y125.544 E.01362
G1 X156.962 Y125.8 E.01121
G1 X156.792 Y125.865 E.00531
G1 X156.447 Y125.936 E.01027
G1 X74.664 Y125.936 E2.38475
G1 X74.19 Y125.875 E.01394
G1 X73.974 Y125.762 E.00711
G1 X73.7 Y125.462 E.01185
G1 X73.634 Y125.29 E.00537
G1 X73.564 Y124.947 E.01021
G1 X73.564 Y84.884 E1.16821
G1 X73.751 Y84.456 E.01362
G1 X74.038 Y84.2 E.01121
G1 X74.208 Y84.134 E.00532
G1 X74.553 Y84.064 E.01026
G1 X156.432 Y84.074 E2.38755
G1 X156.628 Y84.111 E.00582
G1 X156.768 Y83.739 F9000
G1 F1350
G1 X156.907 Y83.775 E.00419
G1 X157.27 Y83.941 E.01164
G1 X157.548 Y84.227 E.01163
G1 X157.739 Y84.582 E.01175
G1 X157.813 Y85.163 E.01708
G1 X157.813 Y124.893 E1.1585
G1 X157.782 Y125.258 E.01068
G1 X157.554 Y125.765 E.01621
G1 X157.153 Y126.131 E.01583
G1 X156.757 Y126.282 E.01236
G1 X156.467 Y126.313 E.0085
G1 X74.664 Y126.313 E2.38533
G1 X74.339 Y126.28 E.00953
G1 X73.95 Y126.181 E.0117
G1 X73.636 Y125.982 E.01084
G1 X73.369 Y125.653 E.01236
G1 X73.218 Y125.257 E.01236
G1 X73.187 Y124.967 E.0085
G1 X73.187 Y85.107 E1.1623
G1 X73.218 Y84.742 E.01068
G1 X73.446 Y84.235 E.01621
G1 X73.847 Y83.869 E.01583
G1 X74.243 Y83.718 E.01236
G1 X74.533 Y83.687 E.0085
G1 X156.608 Y83.697 E2.39326
G1 X156.71 Y83.723 E.00307
G1 X156.847 Y83.369 F9000
;TYPE:External perimeter
G1 F900
G1 X157.192 Y83.46 E.0104
G1 X157.606 Y83.736 E.01451
G1 X157.872 Y84.031 E.01158
G1 X158.104 Y84.474 E.01458
G1 X158.19 Y85.163 E.02025
G1 X158.19 Y124.893 E1.1585
G1 X158.152 Y125.346 E.01326
G1 X157.96 Y125.848 E.01567
G1 X157.758 Y126.126 E.01002
G1 X157.344 Y126.461 E.01553
G1 X156.846 Y126.652 E.01555
G1 X156.486 Y126.69 E.01056
G1 X74.519 Y126.69 E2.39011
G1 X73.974 Y126.604 E.01609
G1 X73.797 Y126.525 E.00565
G1 X73.374 Y126.258 E.01459
G1 X73.039 Y125.844 E.01553
G1 X72.848 Y125.346 E.01555
G1 X72.81 Y124.986 E.01056
G1 X72.81 Y85.107 E1.16285
G1 X72.848 Y84.654 E.01326
G1 X73.04 Y84.152 E.01567
G1 X73.242 Y83.874 E.01002
G1 X73.656 Y83.539 E.01553
G1 X74.154 Y83.348 E.01555
G1 X74.514 Y83.31 E.01056
G1 X156.657 Y83.32 E2.39524
G1 X156.789 Y83.354 E.00397
G1 X156.063 Y84.194 F9000
;TYPE:Solid infill
;WIDTH:0.420243
G1 F1260
G1 X157.145 Y85.277 E.04467
G1 X157.145 Y85.81 E.01555
G1 X155.699 Y84.364 E.05967
G1 X155.166 Y84.364 E.01555
G1 X157.145 Y86.344 E.08168
G1 X157.145 Y86.877 E.01555
G1 X154.632 Y84.364 E.1037
G1 X154.098 Y84.364 E.01558
G1 X157.145 Y87.411 E.12573
G1 X157.145 Y87.945 E.01558
G1 X153.565 Y84.364 E.14775
G1 X153.031 Y84.364 E.01558
G1 X157.145 Y88.478 E.16976
G1 X157.145 Y89.012 E.01558
G1 X152.497 Y84.364 E.1918
G1 X151.964 Y84.364 E.01555
G1 X157.145 Y89.546 E.21381
G1 X157.145 Y90.079 E.01555
G1 X151.43 Y84.364 E.23583
G1 X150.896 Y84.364 E.01558
G1 X157.145 Y90.613 E.25786
G1 X157.145 Y91.146 E.01555
G1 X150.363 Y84.363 E.27988
G1 X149.829 Y84.363 E.01558
G1 X157.145 Y91.68 E.30191
G1 X157.145 Y92.214 E.01558
G1 X149.295 Y84.363 E.32395
G1 X148.762 Y84.363 E.01555
G1 X157.145 Y92.747 E.34594
G1 X157.145 Y93.281 E.01558
G1 X148.228 Y84.363 E.36798
G1 X147.694 Y84.363 E.01558
G1 X157.145 Y93.814 E.38999
G1 X157.145 Y94.348 E.01558
G1 X147.161 Y84.363 E.412
G1 X146.627 Y84.363 E.01558
G1 X157.145 Y94.882 E.43404
G1 X157.145 Y95.415 E.01555
G1 X146.093 Y84.363 E.45605
G1 X145.56 Y84.363 E.01555
G1 X157.145 Y95.949 E.47807
G1 X157.145 Y96.483 E.01558
G1 X145.026 Y84.363 E.5001
G1 X144.492 Y84.363 E.01558
G1 X157.145 Y97.016 E.52212
G1 X157.145 Y97.55 E.01558
G1 X143.958 Y84.363 E.54415
G1 X143.425 Y84.363 E.01555
G1 X157.145 Y98.083 E.56615
G1 X157.145 Y98.617 E.01558
G1 X142.891 Y84.363 E.58818
G1 X142.357 Y84.363 E.01558
G1 X157.145 Y99.151 E.61022
G1 X157.145 Y99.684 E.01555
G1 X141.824 Y84.362 E.63223
G1 X141.29 Y84.362 E.01558
G1 X157.145 Y100.218 E.65427
G1 X157.145 Y100.751 E.01555
G1 X140.756 Y84.362 E.67628
G1 X140.223 Y84.362 E.01555
G1 X157.145 Y101.285 E.6983
G1 X157.145 Y101.819 E.01558
G1 X139.689 Y84.362 E.72033
G1 X139.155 Y84.362 E.01558
G1 X157.145 Y102.352 E.74235
G1 X157.145 Y102.886 E.01558
G1 X138.622 Y84.362 E.76436
G1 X138.088 Y84.362 E.01558
G1 X151.071 Y97.345 E.53574
G1 X150.538 Y97.345 E.01555
G1 X137.554 Y84.362 E.53576
G1 X137.021 Y84.362 E.01555
G1 X150.004 Y97.345 E.53574
G1 X149.471 Y97.345 E.01555
G1 X136.487 Y84.362 E.53576
G1 X135.953 Y84.362 E.01558
G1 X148.937 Y97.345 E.53576
G1 X148.403 Y97.345 E.01558
G1 X135.42 Y84.362 E.53574
G1 X134.886 Y84.362 E.01558
G1 X147.87 Y97.345 E.53576
G1 X147.336 Y97.345 E.01558
G1 X134.352 Y84.362 E.53576
G1 X133.819 Y84.362 E.01555
G1 X146.803 Y97.345 E.53576
G1 X146.269 Y97.345 E.01558
G1 X133.285 Y84.361 E.53578
G1 X132.751 Y84.361 E.01558
G1 X145.735 Y97.345 E.53578
G1 X145.202 Y97.345 E.01555
G1 X132.218 Y84.361 E.53578
G1 X131.684 Y84.361 E.01558
G1 X144.668 Y97.345 E.53578
G1 X144.134 Y97.345 E.01558
G1 X131.15 Y84.361 E.53578
G1 X130.617 Y84.361 E.01555
G1 X143.601 Y97.345 E.53578
G1 X143.067 Y97.345 E.01558
G1 X130.083 Y84.361 E.53578
G1 X129.549 Y84.361 E.01558
G1 X142.534 Y97.345 E.5358
G1 X142 Y97.345 E.01558
G1 X129.015 Y84.361 E.5358
G1 X128.482 Y84.361 E.01555
G1 X141.466 Y97.345 E.53578
G1 X140.933 Y97.345 E.01555
G1 X127.948 Y84.361 E.5358
G1 X127.414 Y84.361 E.01558
G1 X140.399 Y97.345 E.5358
G1 X139.866 Y97.345 E.01555
G1 X126.881 Y84.361 E.5358
G1 X126.347 Y84.361 E.01558
G1 X139.332 Y97.345 E.5358
G1 X138.798 Y97.345 E.01558
G1 X125.813 Y84.361 E.5358
G1 X125.28 Y84.361 E.01555
G1 X138.265 Y97.345 E.5358
G1 X137.731 Y97.345 E.01558
G1 X124.746 Y84.36 E.53582
G1 X124.212 Y84.36 E.01558
G1 X137.197 Y97.345 E.53582
G1 X136.664 Y97.345 E.01555
G1 X123.679 Y84.36 E.53582
G1 X123.145 Y84.36 E.01558
G1 X136.13 Y97.345 E.53582
G1 X135.597 Y97.345 E.01555
G1 X122.611 Y84.36 E.53584
G1 X122.078 Y84.36 E.01555
G1 X135.063 Y97.345 E.53582
G1 X134.529 Y97.345 E.01558
G1 X121.544 Y84.36 E.53582
G1 X121.01 Y84.36 E.01558
G1 X133.996 Y97.345 E.53584
G1 X133.462 Y97.345 E.01558
G1 X120.477 Y84.36 E.53582
G1 X119.943 Y84.36 E.01558
G1 X132.929 Y97.345 E.53584
G1 X132.395 Y97.345 E.01558
G1 X119.409 Y84.36 E.53584
G1 X118.876 Y84.36 E.01555
G1 X131.861 Y97.345 E.53582
G1 X131.328 Y97.345 E.01555
G1 X118.342 Y84.36 E.53584
G1 X117.808 Y84.36 E.01558
G1 X130.794 Y97.345 E.53584
G1 X130.26 Y97.345 E.01558
G1 X117.275 Y84.36 E.53582
G1 X116.741 Y84.36 E.01558
G1 X129.727 Y97.345 E.53584
G1 X129.193 Y97.345 E.01558
G1 X116.207 Y84.359 E.53586
G1 X115.674 Y84.359 E.01555
G1 X128.66 Y97.345 E.53586
G1 X128.126 Y97.345 E.01558
G1 X115.14 Y84.359 E.53586
G1 X114.606 Y84.359 E.01558
G1 X127.592 Y97.345 E.53586
G1 X127.059 Y97.345 E.01555
G1 X114.072 Y84.359 E.53588
G1 X113.539 Y84.359 E.01555
G1 X126.525 Y97.345 E.53586
G1 X125.992 Y97.345 E.01555
G1 X113.005 Y84.359 E.53588
G1 X112.471 Y84.359 E.01558
G1 X125.458 Y97.345 E.53588
G1 X124.924 Y97.345 E.01558
G1 X111.938 Y84.359 E.53586
G1 X111.404 Y84.359 E.01558
G1 X124.391 Y97.345 E.53588
G1 X123.857 Y97.345 E.01558
G1 X110.87 Y84.359 E.53588
G1 X110.337 Y84.359 E.01555
G1 X123.323 Y97.345 E.53586
G1 X122.79 Y97.345 E.01555
G1 X109.803 Y84.359 E.53588
G1 X109.269 Y84.359 E.01558
G1 X122.267 Y97.356 E.53633
G1 X122.126 Y97.371 E.00414
G1 X121.847 Y97.47 E.00864
G1 X108.736 Y84.359 E.54102
G1 X108.202 Y84.358 E.01558
G1 X121.53 Y97.687 E.54999
G1 X121.371 Y97.867 E.00701
G1 X121.302 Y97.992 E.00417
G1 X107.668 Y84.358 E.5626
G1 X107.135 Y84.358 E.01555
G1 X121.163 Y98.387 E.57888
G1 X121.146 Y98.903 E.01506
G1 X106.601 Y84.358 E.60019
G1 X106.067 Y84.358 E.01558
G1 X121.146 Y99.437 E.62223
G1 X121.146 Y99.97 E.01555
G1 X105.534 Y84.358 E.64422
G1 X105 Y84.358 E.01558
G1 X121.146 Y100.504 E.66625
G1 X121.146 Y101.037 E.01555
G1 X104.466 Y84.358 E.68827
G1 X103.933 Y84.358 E.01555
G1 X121.146 Y101.571 E.71028
G1 X121.146 Y102.105 E.01558
G1 X103.399 Y84.358 E.73232
G1 X102.865 Y84.358 E.01558
G1 X121.146 Y102.638 E.75433
G1 X121.146 Y103.172 E.01558
G1 X102.332 Y84.358 E.77635
G1 X101.798 Y84.358 E.01558
G1 X121.146 Y103.705 E.79836
G1 X121.146 Y104.239 E.01558
G1 X101.264 Y84.358 E.8204
G1 X100.731 Y84.358 E.01555
G1 X121.146 Y104.773 E.84241
G1 X121.146 Y105.306 E.01555
G1 X100.197 Y84.358 E.86443
G1 X99.663 Y84.357 E.01558
G1 X121.146 Y105.84 E.88648
G1 X121.146 Y106.374 E.01558
G1 X99.129 Y84.357 E.90852
G1 X98.596 Y84.357 E.01555
G1 X121.146 Y106.907 E.93051
G1 X121.146 Y107.441 E.01558
G1 X98.062 Y84.357 E.95255
G1 X97.528 Y84.357 E.01558
G1 X121.146 Y107.974 E.97456
G1 X121.146 Y108.508 E.01558
G1 X96.995 Y84.357 E.99658
G1 X96.461 Y84.357 E.01558
G1 X121.146 Y109.042 E1.01861
G1 X121.146 Y109.575 E.01555
G1 X95.927 Y84.357 E1.04063
G1 X95.394 Y84.357 E.01555
G1 X121.146 Y110.109 E1.06264
G1 X121.146 Y110.642 E.01555
G1 X94.86 Y84.357 E1.08465
G1 X94.326 Y84.357 E.01558
G1 X121.146 Y111.176 E1.10669
G1 X121.146 Y111.71 E.01558
G1 X93.793 Y84.357 E1.1287
G1 X93.259 Y84.357 E.01558
G1 X121.146 Y112.243 E1.15072
G1 X121.146 Y112.777 E.01558
G1 X92.725 Y84.357 E1.17275
G1 X92.192 Y84.357 E.01555
G1 X121.146 Y113.31 E1.19475
G1 X121.146 Y113.844 E.01558
G1 X91.658 Y84.357 E1.21678
G1 X91.124 Y84.356 E.01558
G1 X121.146 Y114.378 E1.23884
G1 X121.146 Y114.911 E.01555
G1 X90.591 Y84.356 E1.26083
G1 X90.057 Y84.356 E.01558
G1 X121.146 Y115.445 E1.28287
G1 X121.146 Y115.979 E.01558
G1 X89.523 Y84.356 E1.3049
