; generated by PrusaSlicer 2.9.4 on 2026-02-25 at 22:15:12 UTC

; 

; external perimeters extrusion width = 0.42mm
; perimeters extrusion width = 0.44mm
; infill extrusion width = 0.44mm
; solid infill extrusion width = 0.44mm
; top infill extrusion width = 0.40mm
; first layer extrusion width = 0.42mm

M201 X500 Y500 Z100 E5000 ; sets maximum accelerations, mm/sec^2
M203 X500 Y500 Z10 E60 ; sets maximum feedrates, mm / sec
M204 S500 T1000 ; sets acceleration (S) and retract acceleration (R), mm/sec^2
M205 X8.00 Y8.00 Z0.40 E5.00 ; sets the jerk limits, mm/sec
M205 S0 T0 ; sets the minimum extruding and travel feed rate, mm/sec

; printing object Pullups - Housing.stl id:0 copy 0
; stop printing object Pullups - Housing.stl id:0 copy 0

;TYPE:Custom
; Ender 3 Custom Start G-code
M190 S65 ; Preheat bed for abl
G28 ; Home all axes
G29 ; Auto bed levelling
M420 S1; Load mesh (essential to load the last mesh setting)
;*** Start Preheating ***
M190 S60 ; Heat to setting 
M109 S200 ﻿T0 ; Heat to setting
;*** End Preheating ***
G92 E0 ; Reset Extruder
G1 Z2.0 F3000 ; Move Z Axis up little to prevent scratching of Heat Bed
G1 X0.1 Y20 Z0.3 F5000.0 ; Move to start position
M300 S440 P200 ; Play chime 1
M300 S660 P250 ; Play chime 2
M300 S880 P300 ; Play chime 3
G1 X0.1 Y200.0 Z0.3 F1500.0 E15 ; Draw the first line
G1 X0.4 Y200.0 Z0.3 F5000.0 ; Move to side a little
G1 X0.4 Y20 Z0.3 F1500.0 E30 ; Draw the second line
G92 E0 ; Reset Extruder
G1 Z2.0 F3000 ; Move Z Axis up little to prevent scratching of Heat Bed
G1 X5 Y20 Z0.3 F5000.0 ; Move over to prevent blob squish
G21 ; set units to millimeters
G90 ; use absolute coordinates
M83 ; use relative distances for extrusion
; Filament gcode
M107
;LAYER_CHANGE
;Z:0.2
;HEIGHT:0.2
G1 E-.5 F3600
G1 Z.2 F9000
G1 X71.313 Y98.908
G1 E.5 F2400
M204 S500
;TYPE:Skirt/Brim
;WIDTH:0.42
G1 F900
G1 X71.973 Y98.469 E.02311
G1 X99.974 Y83.201 E.92999
G1 X101.5 Y82.811 E.04593
G1 X129.5 Y82.811 E.81647
G1 X131.026 Y83.201 E.04593
G1 X159.026 Y98.469 E.92996
G1 X159.677 Y98.9 E.02277
G1 X160.24 Y99.406 E.02207
G1 X160.792 Y100.088 E.02558
G1 X161.168 Y100.739 E.02192
G1 X161.536 Y101.759 E.03162
G1 X161.689 Y103 E.03646
G1 X161.689 Y143 E1.16638
G1 X161.606 Y143.915 E.02679
G1 X161.304 Y144.956 E.03161
G1 X160.906 Y145.737 E.02556
G1 X160.241 Y146.593 E.03161
G1 X159.412 Y147.292 E.03162
G1 X158.456 Y147.804 E.03162
G1 X157.421 Y148.104 E.03142
G1 X156.501 Y148.188 E.02694
G1 X74.5 Y148.189 E2.39111
G1 X73.588 Y148.106 E.0267
G1 X72.544 Y147.804 E.03169
G1 X71.594 Y147.296 E.03141
G1 X70.907 Y146.741 E.02575
G1 X70.208 Y145.912 E.03162
G1 X69.696 Y144.956 E.03162
G1 X69.396 Y143.921 E.03142
G1 X69.312 Y143.001 E.02694
G1 X69.316 Y102.833 E1.17128
G1 X69.462 Y101.766 E.0314
G1 X69.695 Y101.046 E.02207
G1 X70.093 Y100.265 E.02556
G1 X70.754 Y99.412 E.03147
G1 X71.268 Y98.949 E.02017
G1 E-.5 F3600
; printing object Pullups - Housing.stl id:0 copy 0
G1 X90.908 Y101.936 F9000
G1 E.5 F2400
;TYPE:Perimeter
;WIDTH:0.419999
G1 F1350
G1 X91.322 Y101.679 E.01421
G1 X102.039 Y87.064 E.52846
G1 X128.961 Y87.064 E.78503
G1 X139.678 Y101.679 E.52846
G1 X140.185 Y101.936 E.01657
G1 X90.968 Y101.936 E1.43514
G1 X90.819 Y101.621 F9000
;WIDTH:0.502921
G1 F1350
G1 X90.899 Y101.554 E.00371
;WIDTH:0.46146
G1 X91.018 Y101.456 E.00499
;WIDTH:0.419999
G1 X101.848 Y86.687 E.53403
G1 X129.152 Y86.687 E.79617
G1 X139.982 Y101.456 E.53403
;WIDTH:0.46146
G1 X140.134 Y101.554 E.00585
;WIDTH:0.502921
G1 X140.286 Y101.651 E.00641
;WIDTH:0.544379
G1 X140.438 Y101.749 E.00701
G1 X156.428 Y101.749 E.62006
G1 X156.793 Y101.793 E.01426
;WIDTH:0.523928
G1 X157.065 Y101.881 E.01063
;WIDTH:0.519633
G1 X157.465 Y102.194 E.01872
;WIDTH:0.526126
G1 X157.677 Y102.571 E.01616
;WIDTH:0.539163
G1 X157.743 Y102.896 E.01273
;WIDTH:0.543858
G1 X157.75 Y111.251 E.32365
G1 X157.249 Y111.251 E.01941
G1 X157.247 Y102.896 E.32365
;WIDTH:0.539163
G1 X157.184 Y102.628 E.01056
;WIDTH:0.519657
G1 X157.005 Y102.405 E.01054
;WIDTH:0.525777
G1 X156.774 Y102.279 E.00983
;WIDTH:0.544381
G1 X156.428 Y102.251 E.01346
G1 X140.438 Y102.251 E.62006
G1 X140.142 Y102.271 E.0115
;WIDTH:0.502921
G1 X139.845 Y102.292 E.01059
;WIDTH:0.46146
G1 X139.548 Y102.313 E.00964
;WIDTH:0.419999
G1 X91.452 Y102.313 E1.40245
;WIDTH:0.46146
G1 X91.155 Y102.292 E.00964
;WIDTH:0.502921
G1 X90.858 Y102.271 E.01059
;WIDTH:0.544381
G1 X90.562 Y102.251 E.0115
G1 X74.55 Y102.251 E.62091
G1 X74.169 Y102.298 E.01489
;WIDTH:0.523544
G1 X73.918 Y102.472 E.01135
;WIDTH:0.52577
G1 X73.779 Y102.725 E.01078
;WIDTH:0.544381
G1 X73.751 Y103.072 E.0135
G1 X73.751 Y142.95 E1.54638
G1 X73.798 Y143.331 E.01489
;WIDTH:0.523549
G1 X73.972 Y143.582 E.01135
;WIDTH:0.52577
G1 X74.225 Y143.721 E.01078
;WIDTH:0.544379
G1 X74.572 Y143.749 E.0135
G1 X156.45 Y143.749 E3.17504
G1 X156.831 Y143.702 E.01489
;WIDTH:0.523547
G1 X157.082 Y143.528 E.01135
;WIDTH:0.525769
G1 X157.221 Y143.275 E.01078
;WIDTH:0.544381
G1 X157.249 Y142.928 E.0135
G1 X157.249 Y125.249 E.68555
G1 X157.751 Y125.249 E.01947
G1 X157.751 Y142.928 E.68555
G1 X157.688 Y143.403 E.01858
;WIDTH:0.525769
G1 X157.499 Y143.759 E.01505
;WIDTH:0.517993
G1 X157.22 Y144.032 E.01434
;WIDTH:0.529816
G1 X156.818 Y144.208 E.01652
;WIDTH:0.54438
G1 X156.463 Y144.251 E.01387
G1 X74.572 Y144.251 E3.17555
G1 X74.207 Y144.207 E.01426
;WIDTH:0.523897
G1 X73.934 Y144.119 E.01067
;WIDTH:0.519657
G1 X73.676 Y143.952 E.01133
;WIDTH:0.516897
G1 X73.437 Y143.666 E.01366
;WIDTH:0.533028
G1 X73.283 Y143.286 E.01554
;WIDTH:0.544381
G1 X73.249 Y142.963 E.01259
G1 X73.249 Y103.072 E1.54689
G1 X73.293 Y102.707 E.01426
;WIDTH:0.523897
G1 X73.381 Y102.434 E.01067
;WIDTH:0.519656
G1 X73.548 Y102.176 E.01133
;WIDTH:0.516897
G1 X73.834 Y101.937 E.01366
;WIDTH:0.533079
G1 X74.215 Y101.783 E.01558
;WIDTH:0.544381
G1 X74.55 Y101.749 E.01306
G1 X90.663 Y101.749 E.62483
G1 X90.772 Y101.659 E.00548
G1 X90.638 Y101.271 F9000
;TYPE:External perimeter
;WIDTH:0.419999
G1 F900
G1 X90.714 Y101.233 E.00248
G1 X101.657 Y86.31 E.5396
G1 X129.343 Y86.31 E.80731
G1 X140.286 Y101.233 E.5396
G1 X140.438 Y101.31 E.00497
G1 X156.428 Y101.31 E.46626
G1 X156.938 Y101.382 E.01502
G1 X157.239 Y101.491 E.00933
G1 X157.563 Y101.716 E.0115
G1 X157.843 Y101.991 E.01144
G1 X158.07 Y102.396 E.01354
G1 X158.179 Y102.824 E.01288
G1 X158.19 Y111.69 E.25853
G1 X156.81 Y111.69 E.04024
G1 X156.81 Y102.896 E.25643
G1 X156.766 Y102.758 E.00422
G1 X156.621 Y102.69 E.00467
G1 X74.379 Y102.69 E2.39813
G1 X74.252 Y102.738 E.00396
G1 X74.19 Y102.879 E.00449
G1 X74.19 Y143.121 E1.17343
G1 X74.238 Y143.248 E.00396
G1 X74.379 Y143.31 E.00449
G1 X156.621 Y143.31 E2.39813
G1 X156.748 Y143.262 E.00396
G1 X156.81 Y143.121 E.00449
G1 X156.81 Y124.81 E.53394
G1 X158.19 Y124.81 E.04024
G1 X158.19 Y142.928 E.52831
G1 X158.118 Y143.439 E.01505
G1 X158.009 Y143.739 E.00931
G1 X157.755 Y144.13 E.0136
G1 X157.379 Y144.432 E.01406
G1 X156.951 Y144.619 E.01362
G1 X156.486 Y144.69 E.01372
G1 X74.572 Y144.69 E2.38857
G1 X74.061 Y144.618 E.01505
G1 X73.656 Y144.462 E.01266
G1 X73.258 Y144.131 E.01509
G1 X72.992 Y143.748 E.0136
G1 X72.87 Y143.42 E.0102
G1 X72.81 Y142.986 E.01278
G1 X72.81 Y103.072 E1.16387
G1 X72.882 Y102.561 E.01505
G1 X73.038 Y102.156 E.01266
G1 X73.369 Y101.758 E.01509
G1 X73.752 Y101.493 E.01358
G1 X74.081 Y101.37 E.01024
G1 X74.514 Y101.31 E.01275
G1 X90.562 Y101.31 E.46795
G1 X90.584 Y101.299 E.00072
G1 E-.5 F3600
G1 X131.043 Y90.108 F9000
G1 E.5 F2400
;TYPE:Solid infill
;WIDTH:0.423758
G1 F1260
G1 X128.29 Y87.355 E.11466
G1 X127.751 Y87.355 E.01587
G1 X131.735 Y91.339 E.16593
G1 X133.216 Y93.358 E.07374
G1 X127.213 Y87.355 E.25002
G1 X126.674 Y87.355 E.01587
G1 X134.698 Y95.378 E.33417
G1 X136.179 Y97.398 E.07377
G1 X126.135 Y87.355 E.4183
G1 X125.597 Y87.355 E.01584
G1 X137.66 Y99.418 E.50241
G1 X139.141 Y101.437 E.07374
G1 X125.058 Y87.355 E.58652
G1 X124.52 Y87.355 E.01584
G1 X138.811 Y101.645 E.59518
G1 X138.272 Y101.645 E.01587
G1 X123.981 Y87.355 E.59518
G1 X123.442 Y87.355 E.01587
G1 X137.733 Y101.645 E.59518
G1 X137.195 Y101.645 E.01584
G1 X122.904 Y87.355 E.59518
G1 X122.365 Y87.355 E.01587
G1 X136.656 Y101.645 E.59518
G1 X136.118 Y101.645 E.01584
G1 X121.827 Y87.355 E.59518
G1 X121.288 Y87.355 E.01587
G1 X135.579 Y101.645 E.59518
G1 X135.041 Y101.645 E.01584
G1 X120.75 Y87.355 E.59518
G1 X120.211 Y87.355 E.01587
G1 X134.502 Y101.645 E.59518
G1 X133.963 Y101.645 E.01587
G1 X119.672 Y87.355 E.59518
G1 X119.134 Y87.355 E.01584
G1 X133.425 Y101.645 E.59518
G1 X132.886 Y101.645 E.01587
G1 X118.595 Y87.355 E.59518
G1 X118.057 Y87.355 E.01584
G1 X132.348 Y101.645 E.59518
G1 X131.809 Y101.645 E.01587
G1 X117.518 Y87.355 E.59518
G1 X116.979 Y87.355 E.01587
G1 X131.27 Y101.645 E.59518
G1 X130.732 Y101.645 E.01584
G1 X116.441 Y87.355 E.59518
G1 X115.902 Y87.355 E.01587
G1 X130.193 Y101.645 E.59518
G1 X129.655 Y101.645 E.01584
G1 X115.364 Y87.355 E.59518
G1 X114.825 Y87.355 E.01587
G1 X129.116 Y101.645 E.59518
G1 X128.577 Y101.645 E.01587
G1 X114.287 Y87.355 E.59516
G1 X113.748 Y87.355 E.01587
G1 X128.039 Y101.645 E.59518
G1 X127.5 Y101.645 E.01587
G1 X113.209 Y87.355 E.59518
G1 X112.671 Y87.355 E.01584
G1 X126.962 Y101.645 E.59518
G1 X126.423 Y101.645 E.01587
G1 X112.132 Y87.355 E.59518
G1 X111.594 Y87.355 E.01584
G1 X125.885 Y101.645 E.59518
G1 X125.346 Y101.645 E.01587
G1 X111.055 Y87.355 E.59518
G1 X110.516 Y87.355 E.01587
G1 X124.807 Y101.645 E.59518
G1 X124.269 Y101.645 E.01584
G1 X109.978 Y87.355 E.59518
G1 X109.439 Y87.355 E.01587
G1 X123.73 Y101.645 E.59518
G1 X123.192 Y101.645 E.01584
G1 X108.901 Y87.355 E.59518
G1 X108.362 Y87.355 E.01587
G1 X122.653 Y101.645 E.59518
G1 X122.114 Y101.645 E.01587
G1 X107.823 Y87.355 E.59518
G1 X107.285 Y87.355 E.01584
G1 X121.576 Y101.645 E.59518
G1 X121.037 Y101.645 E.01587
G1 X106.746 Y87.355 E.59518
G1 X106.208 Y87.355 E.01584
G1 X120.499 Y101.645 E.59518
G1 X119.96 Y101.645 E.01587
G1 X105.669 Y87.355 E.59518
G1 X105.131 Y87.355 E.01584
G1 X119.422 Y101.645 E.59518
G1 X118.883 Y101.645 E.01587
G1 X104.592 Y87.355 E.59518
G1 X104.053 Y87.355 E.01587
G1 X118.344 Y101.645 E.59518
G1 X117.806 Y101.645 E.01584
G1 X103.515 Y87.355 E.59518
G1 X102.976 Y87.355 E.01587
G1 X117.267 Y101.645 E.59518
G1 X116.729 Y101.645 E.01584
G1 X102.438 Y87.355 E.59518
G1 X102.186 Y87.355 E.00742
G1 X102.065 Y87.52 E.00603
G1 X116.19 Y101.645 E.58829
G1 X115.651 Y101.645 E.01587
G1 X101.837 Y87.831 E.57534
G1 X101.609 Y88.142 E.01136
G1 X115.113 Y101.645 E.5624
G1 X114.574 Y101.645 E.01587
G1 X101.381 Y88.452 E.54947
G1 X101.153 Y88.763 E.01136
G1 X114.036 Y101.645 E.53654
G1 X113.497 Y101.645 E.01587
G1 X100.925 Y89.074 E.52359
G1 X100.698 Y89.385 E.01134
G1 X112.958 Y101.645 E.51061
G1 X112.42 Y101.645 E.01584
G1 X100.47 Y89.695 E.4977
G1 X100.242 Y90.006 E.01136
G1 X111.881 Y101.645 E.48475
G1 X111.343 Y101.645 E.01584
G1 X100.014 Y90.317 E.47182
G1 X99.786 Y90.628 E.01136
G1 X110.804 Y101.645 E.45887
G1 X110.266 Y101.645 E.01584
G1 X99.558 Y90.938 E.44595
G1 X99.33 Y91.249 E.01136
G1 X109.727 Y101.645 E.433
G1 X109.188 Y101.645 E.01587
G1 X99.103 Y91.56 E.42003
G1 X98.875 Y91.87 E.01133
G1 X108.65 Y101.645 E.40712
G1 X108.111 Y101.645 E.01587
G1 X98.647 Y92.181 E.39416
G1 X98.419 Y92.492 E.01136
G1 X107.573 Y101.645 E.38123
G1 X107.034 Y101.645 E.01587
G1 X98.191 Y92.803 E.36828
G1 X97.963 Y93.113 E.01133
G1 X106.495 Y101.645 E.35535
G1 X105.957 Y101.645 E.01584
G1 X97.735 Y93.424 E.34242
G1 X97.508 Y93.735 E.01134
G1 X105.418 Y101.645 E.32944
G1 X104.88 Y101.645 E.01584
G1 X97.28 Y94.045 E.31653
G1 X97.052 Y94.356 E.01136
G1 X104.341 Y101.645 E.30358
G1 X103.803 Y101.645 E.01584
G1 X96.824 Y94.667 E.29065
G1 X96.596 Y94.978 E.01136
G1 X103.264 Y101.645 E.27769
G1 X102.725 Y101.645 E.01587
G1 X96.368 Y95.288 E.26476
G1 X96.14 Y95.599 E.01136
G1 X102.187 Y101.645 E.25183
G1 X101.648 Y101.645 E.01587
G1 X95.912 Y95.91 E.23888
G1 X95.685 Y96.221 E.01134
G1 X101.11 Y101.645 E.22592
G1 X100.571 Y101.645 E.01587
G1 X95.457 Y96.531 E.21299
G1 X95.229 Y96.842 E.01136
G1 X100.032 Y101.645 E.20004
G1 X99.494 Y101.645 E.01584
G1 X95.001 Y97.153 E.18711
G1 X94.773 Y97.463 E.01133
G1 X98.955 Y101.645 E.17418
G1 X98.417 Y101.645 E.01584
G1 X94.545 Y97.774 E.16124
G1 X94.317 Y98.085 E.01136
G1 X97.878 Y101.645 E.14829
G1 X97.339 Y101.645 E.01587
G1 X94.09 Y98.396 E.13532
G1 X93.862 Y98.706 E.01133
G1 X96.801 Y101.645 E.12241
G1 X96.262 Y101.645 E.01587
G1 X93.634 Y99.017 E.10945
G1 X93.406 Y99.328 E.01136
G1 X95.724 Y101.645 E.09652
G1 X95.185 Y101.645 E.01587
G1 X93.178 Y99.638 E.08359
G1 X92.95 Y99.949 E.01136
G1 X94.647 Y101.645 E.07066
G1 X94.108 Y101.645 E.01587
G1 X92.722 Y100.26 E.0577
G1 X92.495 Y100.571 E.01134
G1 X93.569 Y101.645 E.04473
G1 X93.031 Y101.645 E.01584
G1 X92.267 Y100.881 E.03182
G1 X92.039 Y101.192 E.01136
G1 X92.492 Y101.645 E.01887
G1 X91.954 Y101.645 E.01584
G1 X91.69 Y101.381 E.011
M106 S255
;LAYER_CHANGE
;Z:0.4
;HEIGHT:0.2
;BEFORE_LAYER_CHANGE
G92 E0
;0.4


G1 E-.5 F3600
G1 Z.4 F9000
;AFTER_LAYER_CHANGE
;0.4
M104 S195 ; set temperature
; stop printing object Pullups - Housing.stl id:0 copy 0
G1 X85.947 Y90.849
G1 E.5 F2400
;TYPE:Skirt/Brim
;WIDTH:0.42
G1 F3000
G1 X99.974 Y83.201 E.46587
G1 X101.5 Y82.811 E.04593
G1 X129.5 Y82.811 E.81647
G1 X131.026 Y83.201 E.04593
G1 X159.026 Y98.469 E.92996
G1 X159.677 Y98.9 E.02277
G1 X160.24 Y99.406 E.02207
G1 X160.792 Y100.088 E.02558
G1 X161.168 Y100.739 E.02192
G1 X161.536 Y101.759 E.03162
G1 X161.689 Y103 E.03646
G1 X161.689 Y143 E1.16638
G1 X161.606 Y143.915 E.02679
G1 X161.304 Y144.956 E.03161
G1 X160.906 Y145.737 E.02556
G1 X160.241 Y146.593 E.03161
G1 X159.412 Y147.292 E.03162
G1 X158.456 Y147.804 E.03162
G1 X157.421 Y148.104 E.03142
G1 X156.501 Y148.188 E.02694
G1 X74.5 Y148.189 E2.39111
G1 X73.588 Y148.106 E.0267
G1 X72.544 Y147.804 E.03169
G1 X71.594 Y147.296 E.03141
G1 X70.907 Y146.741 E.02575
G1 X70.208 Y145.912 E.03162
G1 X69.696 Y144.956 E.03162
G1 X69.396 Y143.921 E.03142
G1 X69.312 Y143.001 E.02694
G1 X69.316 Y102.833 E1.17128
G1 X69.462 Y101.766 E.0314
G1 X69.695 Y101.046 E.02207
G1 X70.093 Y100.265 E.02556
G1 X70.754 Y99.412 E.03147
G1 X71.313 Y98.908 E.02195
G1 X71.973 Y98.469 E.02311
G1 X85.894 Y90.878 E.46236
G1 E-.5 F3600
; printing object Pullups - Housing.stl id:0 copy 0
G1 X90.924 Y101.836 F9000
G1 E.5 F2400
;TYPE:Perimeter
;WIDTH:0.466512
G1 F4500
G1 X91.295 Y101.597 E.01446
;WIDTH:0.439999
G1 X102.004 Y86.994 E.55605
G1 X128.996 Y86.994 E.82882
G1 X139.705 Y101.597 E.55605
;WIDTH:0.451682
G1 X140.489 Y102 E.02786
G1 X139.497 Y102.006 E.03136
;WIDTH:0.439999
G1 X91.503 Y102.006 E1.47371
;WIDTH:0.466512
G1 X90.681 Y101.993 E.02693
G1 X90.874 Y101.868 E.00753
G1 E-.5 F3600
G1 X157.499 Y111.001 F9000
G1 E.5 F2400
;WIDTH:0.450492
G1 F3000
G1 X157.495 Y102.979 E.25283
;WIDTH:0.44095
G1 X157.449 Y102.694 E.00889
;WIDTH:0.43446
G1 X157.241 Y102.33 E.01269
;WIDTH:0.438332
G1 X157.001 Y102.133 E.00949
G1 X156.672 Y102.026 E.01058
;WIDTH:0.45168
G1 X156.423 Y102 E.00791
G1 X140.489 Y102 E.50366
G1 E-.5 F3600
G1 X90.681 Y101.993 F9000
G1 E.5 F2400
;WIDTH:0.466512
G1 F4500
G1 X90.511 Y102 E.00557
;WIDTH:0.451682
G1 X74.578 Y102 E.50363
G1 X74.167 Y102.058 E.01312
;WIDTH:0.43801
G1 X73.873 Y102.231 E.01042
;WIDTH:0.438304
G1 X73.632 Y102.501 E.01107
G1 X73.526 Y102.828 E.01051
;WIDTH:0.451684
G1 X73.5 Y103.078 E.00795
G1 X73.5 Y142.922 E1.25945
G1 X73.552 Y143.308 E.01231
;WIDTH:0.434034
G1 X73.759 Y143.67 E.01261
;WIDTH:0.43734
G1 X74.117 Y143.923 E.01337
;WIDTH:0.451682
G1 X74.498 Y144 E.01229
G1 X156.422 Y144 E2.58958
G1 X156.833 Y143.942 E.01312
;WIDTH:0.438008
G1 X157.127 Y143.769 E.01042
;WIDTH:0.419058
G1 X157.329 Y143.545 E.00877
;WIDTH:0.451684
G1 X157.5 Y143.156 E.01343
G1 X157.5 Y125.5 E.5581
G1 X157.097 Y125.097 F9000
;WIDTH:0.439999
G1 F4500
G1 X157.903 Y125.097 E.02475
G1 X157.903 Y142.948 E.54813
G1 X157.82 Y143.443 E.01541
G1 X157.571 Y143.881 E.01547
G1 X157.24 Y144.174 E.01357
G1 X156.994 Y144.304 E.00854
G1 X156.454 Y144.403 E.01686
G1 X74.552 Y144.403 E2.51489
G1 X74.057 Y144.32 E.01541
G1 X73.597 Y144.057 E.01627
G1 X73.413 Y143.873 E.00799
G1 X73.173 Y143.432 E.01542
