; generated by PrusaSlicer 2.9.4 on 2026-02-26 at 21:02:52 UTC

; 

; external perimeters extrusion width = 0.42mm
; perimeters extrusion width = 0.44mm
; infill extrusion width = 0.44mm
; solid infill extrusion width = 0.44mm
; top infill extrusion width = 0.40mm
; first layer extrusion width = 0.42mm

M201 X500 Y500 Z100 E5000 ; sets maximum accelerations, mm/sec^2
M203 X500 Y500 Z10 E60 ; sets maximum feedrates, mm / sec
M204 S500 T1000 ; sets acceleration (S) and retract acceleration (R), mm/sec^2
M205 X8.00 Y8.00 Z0.40 E5.00 ; sets the jerk limits, mm/sec
M205 S0 T0 ; sets the minimum extruding and travel feed rate, mm/sec

; printing object Pullups - Lid.stl id:0 copy 0
; stop printing object Pullups - Lid.stl id:0 copy 0

;TYPE:Custom
; Ender 3 Custom Start G-code
M190 S65 ; Preheat bed for abl
G28 ; Home all axes
G29 ; Auto bed levelling
M420 S1; Load mesh (essential to load the last mesh setting)
;*** Start Preheating ***
M190 S60 ; Heat to setting 
M109 S200 ﻿T0 ; Heat to setting
;*** End Preheating ***
G92 E0 ; Reset Extruder
G1 Z2.0 F3000 ; Move Z Axis up little to prevent scratching of Heat Bed
G1 X0.1 Y20 Z0.3 F5000.0 ; Move to start position
M300 S440 P200 ; Play chime 1
M300 S660 P250 ; Play chime 2
M300 S880 P300 ; Play chime 3
G1 X0.1 Y200.0 Z0.3 F1500.0 E15 ; Draw the first line
G1 X0.4 Y200.0 Z0.3 F5000.0 ; Move to side a little
G1 X0.4 Y20 Z0.3 F1500.0 E30 ; Draw the second line
G92 E0 ; Reset Extruder
G1 Z2.0 F3000 ; Move Z Axis up little to prevent scratching of Heat Bed
G1 X5 Y20 Z0.3 F5000.0 ; Move over to prevent blob squish
G21 ; set units to millimeters
G90 ; use absolute coordinates
M83 ; use relative distances for extrusion
; Filament gcode
M107
;LAYER_CHANGE
;Z:0.2
;HEIGHT:0.2
G1 E-1 F3600
G1 Z.2 F9000
G1 X70.907 Y91.759
G1 E1 F2400
M204 S500
;TYPE:Skirt/Brim
;WIDTH:0.42
G1 F900
G1 X72.052 Y90.927 E.04127
G1 X73.259 Y90.464 E.0377
G1 X74.5 Y90.311 E.03646
G1 X156.667 Y90.316 E2.39595
G1 X157.741 Y90.464 E.03161
G1 X158.456 Y90.696 E.02192
G1 X159.412 Y91.208 E.03162
G1 X160.093 Y91.759 E.02554
G1 X160.596 Y92.318 E.02193
G1 X161.168 Y93.239 E.03161
G1 X161.536 Y94.259 E.03162
G1 X161.684 Y95.333 E.03161
G1 X161.673 Y135.876 E1.18221
G1 X161.379 Y137.261 E.04129
G1 X160.792 Y138.412 E.03768
G1 X159.845 Y139.464 E.04127
G1 X158.948 Y140.073 E.03161
G1 X157.741 Y140.536 E.0377
G1 X156.5 Y140.689 E.03646
G1 X74.5 Y140.689 E2.39108
G1 X73.792 Y140.638 E.0207
G1 X73.057 Y140.482 E.02191
G1 X71.763 Y139.906 E.0413
G1 X70.759 Y139.093 E.03767
G1 X69.927 Y137.948 E.04127
G1 X69.464 Y136.741 E.0377
G1 X69.311 Y135.5 E.03646
G1 X69.316 Y95.333 E1.17125
G1 X69.518 Y94.057 E.03767
G1 X70.094 Y92.763 E.0413
G1 X70.869 Y91.806 E.03591
G1 E-1 F3600
; printing object Pullups - Lid.stl id:0 copy 0
G1 X123.106 Y110.26 F9000
G1 E1 F2400
;TYPE:Perimeter
;WIDTH:0.419999
G1 F1350
G1 X123.151 Y110.093 E.00504
G1 X123.467 Y109.482 E.02006
G1 X123.88 Y108.992 E.01869
G1 X124.385 Y108.6 E.01864
G1 X124.601 Y108.483 E.00716
G1 X125.221 Y108.245 E.01937
G1 X125.931 Y108.136 E.02095
G1 X147.504 Y108.136 E.62906
G1 X148.039 Y108.187 E.01567
G1 X148.278 Y108.244 E.00716
G1 X148.898 Y108.482 E.01937
G1 X149.474 Y108.861 E.02011
G1 X149.917 Y109.322 E.01864
G1 X150.255 Y109.866 E.01868
G1 X150.349 Y110.093 E.00716
G1 X150.521 Y110.735 E.01938
G1 X150.553 Y110.978 E.00715
G1 X150.564 Y121.204 E.29818
G1 X150.513 Y121.739 E.01567
G1 X150.456 Y121.978 E.00716
G1 X150.218 Y122.598 E.01937
G1 X150.07 Y122.853 E.0086
G1 X149.652 Y123.37 E.01939
G1 X149.115 Y123.8 E.02006
G1 X148.54 Y124.079 E.01864
G1 X148.304 Y124.149 E.00718
G1 X147.578 Y124.264 E.02143
G1 X125.996 Y124.264 E.62932
G1 X125.461 Y124.213 E.01567
G1 X125.222 Y124.156 E.00716
G1 X124.602 Y123.918 E.01937
G1 X124.346 Y123.77 E.00862
G1 X123.83 Y123.352 E.01936
G1 X123.271 Y122.576 E.02789
G1 X123.151 Y122.307 E.00859
G1 X122.979 Y121.666 E.01935
G1 X122.947 Y121.244 E.01234
G1 X122.947 Y110.979 E.29932
G1 X122.979 Y110.735 E.00718
G1 X123.091 Y110.318 E.01259
G1 X123.47 Y110.378 F9000
G1 F1350
G1 X123.515 Y110.191 E.00561
G1 X123.794 Y109.67 E.01723
G1 X124.16 Y109.245 E.01635
G1 X124.606 Y108.905 E.01635
G1 X125.356 Y108.597 E.02364
G1 X125.959 Y108.513 E.01775
G1 X147.504 Y108.513 E.62824
G1 X148.06 Y108.572 E.0163
G1 X148.763 Y108.834 E.02188
G1 X149.252 Y109.166 E.01723
G1 X149.637 Y109.574 E.01636
G1 X149.928 Y110.054 E.01637
G1 X150.176 Y110.898 E.02565
G1 X150.187 Y121.203 E.30049
G1 X150.133 Y121.738 E.01568
G1 X149.866 Y122.463 E.02253
G1 X149.359 Y123.133 E.0245
G1 X148.893 Y123.495 E.01721
G1 X148.386 Y123.734 E.01634
G1 X147.554 Y123.887 E.02467
G1 X125.996 Y123.887 E.62862
G1 X125.427 Y123.825 E.01669
G1 X124.737 Y123.566 E.02149
G1 X124.067 Y123.059 E.0245
G1 X123.587 Y122.371 E.02446
G1 X123.324 Y121.505 E.02639
G1 X123.324 Y110.979 E.30693
G1 X123.456 Y110.436 E.01629
G1 X123.826 Y110.494 F9000
;TYPE:External perimeter
G1 F900
G1 X123.88 Y110.288 E.00621
G1 X124.127 Y109.848 E.01471
G1 X124.469 Y109.471 E.01484
G1 X124.871 Y109.187 E.01435
G1 X125.491 Y108.949 E.01937
G1 X125.996 Y108.89 E.01483
G1 X147.504 Y108.89 E.62716
G1 X148.008 Y108.949 E.0148
G1 X148.628 Y109.187 E.01937
G1 X149.06 Y109.497 E.0155
G1 X149.38 Y109.859 E.01409
G1 X149.62 Y110.288 E.01433
G1 X149.799 Y110.954 E.02011
G1 X149.81 Y121.204 E.29888
G1 X149.751 Y121.708 E.0148
G1 X149.514 Y122.328 E.01935
G1 X149.066 Y122.895 E.02107
G1 X148.655 Y123.201 E.01494
G1 X148.189 Y123.403 E.01481
G1 X147.519 Y123.51 E.01978
G1 X125.996 Y123.51 E.6276
G1 X125.492 Y123.451 E.0148
G1 X124.872 Y123.213 E.01937
G1 X124.304 Y122.766 E.02108
G1 X123.904 Y122.166 E.02103
G1 X123.701 Y121.448 E.02176
G1 X123.701 Y110.976 E.30536
G1 X123.811 Y110.552 E.01277
G1 E-1 F3600
G1 X92.476 Y116.568 F9000
G1 E1 F2400
;TYPE:Perimeter
G1 F900
G1 X92.564 Y117.122 E.01636
G1 X92.564 Y122.204 E.14819
G1 X92.513 Y122.74 E.0157
G1 X92.335 Y123.354 E.01864
G1 X92.229 Y123.576 E.00717
G1 X91.867 Y124.133 E.01937
G1 X91.378 Y124.617 E.02006
G1 X91.176 Y124.756 E.00715
G1 X90.584 Y125.057 E.01937
G1 X90.304 Y125.149 E.00859
G1 X89.578 Y125.264 E.02143
G1 X86.996 Y125.264 E.07529
G1 X86.461 Y125.213 E.01567
G1 X85.629 Y124.931 E.02562
G1 X85.033 Y124.544 E.02072
G1 X84.848 Y124.37 E.00741
G1 X84.43 Y123.854 E.01936
G1 X84.121 Y123.24 E.02004
G1 X84.051 Y123.004 E.00718
G1 X83.936 Y122.278 E.02143
G1 X83.936 Y117.196 E.14819
G1 X83.987 Y116.66 E.0157
G1 X84.045 Y116.421 E.00717
G1 X84.283 Y115.801 E.01937
G1 X84.43 Y115.545 E.00861
G1 X84.848 Y115.03 E.01934
G1 X85.067 Y114.833 E.00859
G1 X85.623 Y114.471 E.01935
G1 X86.268 Y114.228 E.0201
G1 X86.935 Y114.136 E.01963
G1 X89.504 Y114.136 E.07491
G1 X90.039 Y114.187 E.01567
G1 X90.278 Y114.244 E.00716
G1 X90.898 Y114.482 E.01937
G1 X91.153 Y114.63 E.0086
G1 X91.67 Y115.048 E.01939
G1 X92.1 Y115.585 E.02006
G1 X92.379 Y116.16 E.01864
G1 X92.449 Y116.396 E.00718
G1 X92.467 Y116.508 E.00331
G1 X92.096 Y116.648 F9000
G1 F900
G1 X92.187 Y117.146 E.01476
G1 X92.187 Y122.204 E.14749
G1 X92.133 Y122.737 E.01562
G1 X91.976 Y123.237 E.01528
G1 X91.551 Y123.928 E.02366
G1 X91.126 Y124.336 E.01718
G1 X90.413 Y124.722 E.02364
G1 X89.556 Y124.887 E.02545
G1 X86.996 Y124.887 E.07465
G1 X86.428 Y124.826 E.01666
G1 X85.763 Y124.579 E.02069
G1 X85.252 Y124.237 E.01793
G1 X84.723 Y123.617 E.02377
G1 X84.466 Y123.086 E.0172
G1 X84.313 Y122.254 E.02467
G1 X84.313 Y117.196 E.14749
G1 X84.375 Y116.626 E.01672
G1 X84.635 Y115.936 E.0215
G1 X85.141 Y115.267 E.02446
G1 X85.829 Y114.787 E.02446
G1 X86.384 Y114.587 E.0172
G1 X86.961 Y114.513 E.01696
G1 X89.504 Y114.513 E.07415
G1 X90.037 Y114.567 E.01562
G1 X90.763 Y114.834 E.02256
G1 X91.433 Y115.341 E.0245
G1 X91.795 Y115.807 E.01721
G1 X92.034 Y116.314 E.01634
G1 X92.085 Y116.589 E.00816
G1 X91.737 Y116.725 F9000
;TYPE:External perimeter
G1 F900
G1 X91.81 Y117.181 E.01347
G1 X91.81 Y122.204 E.14647
G1 X91.755 Y122.699 E.01452
G1 X91.597 Y123.165 E.01435
G1 X91.235 Y123.722 E.01937
G1 X90.855 Y124.071 E.01504
G1 X90.242 Y124.386 E.0201
G1 X89.52 Y124.51 E.02136
G1 X86.996 Y124.51 E.0736
G1 X86.493 Y124.452 E.01476
G1 X85.896 Y124.226 E.01861
G1 X85.471 Y123.93 E.0151
G1 X85.016 Y123.38 E.02081
G1 X84.802 Y122.91 E.01506
G1 X84.69 Y122.219 E.02041
G1 X84.69 Y117.196 E.14647
G1 X84.749 Y116.691 E.01483
G1 X84.987 Y116.071 E.01937
G1 X85.434 Y115.505 E.02103
G1 X86.034 Y115.104 E.02104
G1 X86.523 Y114.94 E.01504
G1 X86.996 Y114.89 E.01387
G1 X89.504 Y114.89 E.07313
G1 X90.008 Y114.949 E.0148
G1 X90.628 Y115.186 E.01935
G1 X91.195 Y115.634 E.02107
G1 X91.496 Y116.037 E.01467
G1 X91.7 Y116.497 E.01467
G1 X91.727 Y116.665 E.00496
G1 E-1 F3600
G1 X73.613 Y135.689 F9000
G1 E1 F2400
;TYPE:Perimeter
G1 F1350
G1 X73.564 Y135.447 E.0072
G1 X73.564 Y95.384 E1.16821
G1 X73.751 Y94.956 E.01362
G1 X74.038 Y94.7 E.01121
G1 X74.208 Y94.634 E.00532
G1 X74.553 Y94.564 E.01026
G1 X156.432 Y94.574 E2.38755
G1 X156.902 Y94.664 E.01395
G1 X157.191 Y94.877 E.01047
G1 X157.375 Y95.189 E.01056
G1 X157.436 Y95.663 E.01394
G1 X157.436 Y135.616 E1.16501
G1 X157.249 Y136.044 E.01362
G1 X156.962 Y136.3 E.01121
G1 X156.792 Y136.365 E.00531
G1 X156.447 Y136.436 E.01027
G1 X74.664 Y136.436 E2.38475
G1 X74.19 Y136.375 E.01394
G1 X73.974 Y136.262 E.00711
G1 X73.7 Y135.962 E.01185
G1 X73.634 Y135.79 E.00537
G1 X73.625 Y135.747 E.00128
G1 X73.272 Y135.899 F9000
G1 F1350
G1 X73.218 Y135.757 E.00443
G1 X73.187 Y135.467 E.0085
G1 X73.187 Y95.607 E1.1623
G1 X73.218 Y95.242 E.01068
G1 X73.446 Y94.735 E.01621
G1 X73.847 Y94.369 E.01583
G1 X74.243 Y94.218 E.01236
G1 X74.533 Y94.187 E.0085
G1 X156.608 Y94.197 E2.39326
G1 X156.907 Y94.275 E.00901
G1 X157.27 Y94.441 E.01164
G1 X157.548 Y94.727 E.01163
G1 X157.739 Y95.082 E.01175
G1 X157.813 Y95.663 E.01708
G1 X157.813 Y135.393 E1.1585
G1 X157.782 Y135.758 E.01068
G1 X157.554 Y136.265 E.01621
G1 X157.153 Y136.631 E.01583
G1 X156.757 Y136.782 E.01236
G1 X156.467 Y136.813 E.0085
G1 X74.664 Y136.813 E2.38533
G1 X74.339 Y136.78 E.00953
G1 X73.95 Y136.681 E.0117
G1 X73.636 Y136.482 E.01084
G1 X73.369 Y136.153 E.01236
G1 X73.293 Y135.955 E.00618
G1 X72.913 Y136.016 F9000
;TYPE:External perimeter
G1 F900
G1 X72.848 Y135.846 E.00531
G1 X72.81 Y135.486 E.01056
G1 X72.81 Y95.607 E1.16285
G1 X72.848 Y95.154 E.01326
G1 X73.04 Y94.652 E.01567
G1 X73.242 Y94.374 E.01002
G1 X73.656 Y94.039 E.01553
G1 X74.154 Y93.848 E.01555
G1 X74.514 Y93.81 E.01056
G1 X156.657 Y93.82 E2.39524
G1 X157.192 Y93.96 E.01613
G1 X157.606 Y94.236 E.01451
G1 X157.872 Y94.531 E.01158
G1 X158.104 Y94.974 E.01458
G1 X158.19 Y95.663 E.02025
G1 X158.19 Y135.393 E1.1585
G1 X158.152 Y135.846 E.01326
G1 X157.96 Y136.348 E.01567
G1 X157.758 Y136.626 E.01002
G1 X157.344 Y136.961 E.01553
G1 X156.846 Y137.152 E.01555
G1 X156.486 Y137.19 E.01056
G1 X74.519 Y137.19 E2.39011
G1 X73.974 Y137.104 E.01609
G1 X73.797 Y137.025 E.00565
G1 X73.374 Y136.758 E.01459
G1 X73.039 Y136.344 E.01553
G1 X72.934 Y136.072 E.0085
G1 E-1 F3600
G1 X157.315 Y95.946 F9000
G1 E1 F2400
;TYPE:Solid infill
;WIDTH:0.420243
G1 F1260
G1 X156.233 Y94.864 E.04465
G1 X155.699 Y94.864 E.01558
G1 X157.145 Y96.31 E.05967
G1 X157.145 Y96.844 E.01558
G1 X155.166 Y94.864 E.08168
G1 X154.632 Y94.864 E.01558
G1 X157.145 Y97.377 E.1037
G1 X157.145 Y97.911 E.01558
G1 X154.098 Y94.864 E.12573
G1 X153.565 Y94.864 E.01555
G1 X157.145 Y98.445 E.14775
G1 X157.145 Y98.978 E.01555
G1 X153.031 Y94.864 E.16976
G1 X152.497 Y94.864 E.01558
G1 X157.145 Y99.512 E.1918
G1 X157.145 Y100.046 E.01558
G1 X151.964 Y94.864 E.21381
G1 X151.43 Y94.864 E.01558
G1 X157.145 Y100.579 E.23583
G1 X157.145 Y101.113 E.01558
G1 X150.896 Y94.864 E.25786
G1 X150.363 Y94.863 E.01555
G1 X157.145 Y101.646 E.27988
G1 X157.145 Y102.18 E.01558
G1 X149.829 Y94.863 E.30191
G1 X149.295 Y94.863 E.01558
G1 X157.145 Y102.714 E.32395
G1 X157.145 Y103.247 E.01555
G1 X148.762 Y94.863 E.34594
G1 X148.228 Y94.863 E.01558
G1 X157.145 Y103.781 E.36798
G1 X157.145 Y104.314 E.01555
G1 X147.694 Y94.863 E.38999
G1 X147.161 Y94.863 E.01555
G1 X157.145 Y104.848 E.412
G1 X157.145 Y105.382 E.01558
G1 X146.627 Y94.863 E.43404
G1 X146.093 Y94.863 E.01558
G1 X157.145 Y105.915 E.45605
G1 X157.145 Y106.449 E.01558
G1 X145.56 Y94.863 E.47807
G1 X145.026 Y94.863 E.01558
G1 X157.145 Y106.983 E.5001
G1 X157.145 Y107.516 E.01555
G1 X144.492 Y94.863 E.52212
G1 X143.958 Y94.863 E.01558
G1 X157.145 Y108.05 E.54415
G1 X157.145 Y108.583 E.01555
G1 X143.425 Y94.863 E.56615
G1 X142.891 Y94.863 E.01558
G1 X157.145 Y109.117 E.58818
G1 X157.145 Y109.651 E.01558
G1 X142.357 Y94.863 E.61022
G1 X141.824 Y94.862 E.01555
G1 X157.145 Y110.184 E.63223
G1 X157.145 Y110.718 E.01558
G1 X141.29 Y94.862 E.65427
G1 X140.756 Y94.862 E.01558
G1 X157.145 Y111.251 E.67628
G1 X157.145 Y111.785 E.01558
G1 X140.223 Y94.862 E.6983
G1 X139.689 Y94.862 E.01558
G1 X157.145 Y112.319 E.72033
G1 X157.145 Y112.852 E.01555
G1 X139.155 Y94.862 E.74235
G1 X138.622 Y94.862 E.01555
G1 X157.145 Y113.386 E.76436
G1 X157.145 Y113.92 E.01558
G1 X138.088 Y94.862 E.7864
G1 X137.554 Y94.862 E.01558
G1 X157.145 Y114.453 E.80841
G1 X157.145 Y114.987 E.01558
G1 X137.021 Y94.862 E.83042
G1 X136.487 Y94.862 E.01558
G1 X157.145 Y115.52 E.85244
G1 X157.145 Y116.054 E.01558
G1 X135.953 Y94.862 E.87447
G1 X135.42 Y94.862 E.01555
G1 X148.629 Y108.071 E.54506
G1 X149.144 Y108.275 E.01616
G1 X149.648 Y108.628 E.01795
G1 X149.832 Y108.794 E.00723
G1 X150.136 Y109.132 E.01326
G1 X150.282 Y109.332 E.00723
G1 X150.578 Y109.863 E.01774
G1 X150.639 Y110.081 E.00661
G1 X157.145 Y116.588 E.26849
G1 X157.145 Y117.121 E.01555
G1 X150.82 Y110.796 E.261
G1 X150.843 Y110.971 E.00515
G1 X150.844 Y111.353 E.01115
G1 X157.145 Y117.655 E.26003
G1 X157.145 Y118.188 E.01555
G1 X150.844 Y111.887 E.26001
G1 X150.845 Y112.421 E.01558
G1 X157.145 Y118.722 E.25999
G1 X157.145 Y119.256 E.01558
G1 X150.845 Y112.956 E.25997
G1 X150.846 Y113.49 E.01558
G1 X157.145 Y119.789 E.25992
G1 X157.145 Y120.323 E.01558
G1 X150.847 Y114.024 E.2599
G1 X150.847 Y114.558 E.01558
G1 X157.145 Y120.857 E.2599
G1 X157.145 Y121.39 E.01555
G1 X150.848 Y115.092 E.25986
G1 X150.848 Y115.627 E.01561
G1 X157.145 Y121.924 E.25984
G1 X157.145 Y122.457 E.01555
G1 X150.849 Y116.161 E.2598
G1 X150.849 Y116.695 E.01558
G1 X157.145 Y122.991 E.2598
G1 X157.145 Y123.525 E.01558
G1 X150.85 Y117.229 E.25978
G1 X150.851 Y117.763 E.01558
G1 X157.145 Y124.058 E.25974
G1 X157.145 Y124.592 E.01558
G1 X150.851 Y118.298 E.25972
G1 X150.852 Y118.832 E.01558
G1 X157.145 Y125.125 E.25968
G1 X157.145 Y125.659 E.01558
G1 X150.852 Y119.366 E.25968
G1 X150.853 Y119.9 E.01558
G1 X157.145 Y126.193 E.25966
G1 X157.145 Y126.726 E.01555
G1 X150.854 Y120.434 E.25961
G1 X150.854 Y120.969 E.01561
G1 X157.145 Y127.26 E.25959
G1 X157.145 Y127.794 E.01558
G1 X150.828 Y121.476 E.26069
G1 X150.79 Y121.855 E.01111
G1 X150.765 Y121.946 E.00275
G1 X157.145 Y128.327 E.26329
G1 X157.145 Y128.861 E.01558
G1 X150.623 Y122.339 E.26913
G1 X150.47 Y122.719 E.01195
G1 X157.145 Y129.394 E.27544
G1 X157.145 Y129.928 E.01558
G1 X150.277 Y123.059 E.28342
G1 X150.035 Y123.351 E.01107
G1 X157.145 Y130.462 E.29341
G1 X157.145 Y130.995 E.01555
G1 X149.793 Y123.642 E.3034
G1 X149.492 Y123.875 E.01111
G1 X157.145 Y131.529 E.31582
G1 X157.145 Y132.062 E.01555
G1 X149.184 Y124.101 E.32851
G1 X148.814 Y124.265 E.01181
G1 X157.145 Y132.596 E.34377
G1 X157.145 Y133.13 E.01558
G1 X148.431 Y124.415 E.3596
G1 X147.974 Y124.492 E.01352
G1 X157.145 Y133.663 E.37844
G1 X157.145 Y134.197 E.01558
G1 X147.503 Y124.555 E.39787
G1 X146.969 Y124.555 E.01558
G1 X157.145 Y134.731 E.41991
G1 X157.145 Y135.264 E.01555
G1 X146.436 Y124.555 E.4419
G1 X145.902 Y124.555 E.01558
G1 X157.078 Y135.73 E.46115
G1 X156.994 Y135.901 E.00556
G1 X156.84 Y136.026 E.00579
G1 X145.369 Y124.555 E.47334
G1 X144.835 Y124.555 E.01558
G1 X156.426 Y136.145 E.47827
G1 X155.892 Y136.145 E.01558
G1 X144.301 Y124.555 E.47827
G1 X143.768 Y124.555 E.01555
G1 X155.359 Y136.145 E.47827
G1 X154.825 Y136.145 E.01558
G1 X143.234 Y124.555 E.47827
G1 X142.701 Y124.555 E.01555
G1 X154.292 Y136.145 E.47827
G1 X153.758 Y136.145 E.01558
G1 X142.167 Y124.555 E.47827
G1 X141.633 Y124.555 E.01558
