; generated by PrusaSlicer 2.9.4 on 2026-02-28 at 20:18:28 UTC

; 

; external perimeters extrusion width = 0.42mm
; perimeters extrusion width = 0.44mm
; infill extrusion width = 0.44mm
; solid infill extrusion width = 0.44mm
; top infill extrusion width = 0.40mm
; first layer extrusion width = 0.42mm

M201 X500 Y500 Z100 E5000 ; sets maximum accelerations, mm/sec^2
M203 X500 Y500 Z10 E60 ; sets maximum feedrates, mm / sec
M204 S500 T1000 ; sets acceleration (S) and retract acceleration (R), mm/sec^2
M205 X8.00 Y8.00 Z0.40 E5.00 ; sets the jerk limits, mm/sec
M205 S0 T0 ; sets the minimum extruding and travel feed rate, mm/sec

; printing object Pullups - Lid.stl id:0 copy 0
; stop printing object Pullups - Lid.stl id:0 copy 0

;TYPE:Custom
; Ender 3 Custom Start G-code
M190 S65 ; Preheat bed for abl
G28 ; Home all axes
G29 ; Auto bed levelling
M420 S1; Load mesh (essential to load the last mesh setting)
;*** Start Preheating ***
M190 S60 ; Heat to setting 
M109 S200 ﻿T0 ; Heat to setting
;*** End Preheating ***
G92 E0 ; Reset Extruder
G1 Z2.0 F3000 ; Move Z Axis up little to prevent scratching of Heat Bed
G1 X0.1 Y20 Z0.3 F5000.0 ; Move to start position
M300 S440 P200 ; Play chime 1
M300 S660 P250 ; Play chime 2
M300 S880 P300 ; Play chime 3
G1 X0.1 Y200.0 Z0.3 F1500.0 E15 ; Draw the first line
G1 X0.4 Y200.0 Z0.3 F5000.0 ; Move to side a little
G1 X0.4 Y20 Z0.3 F1500.0 E30 ; Draw the second line
G92 E0 ; Reset Extruder
G1 Z2.0 F3000 ; Move Z Axis up little to prevent scratching of Heat Bed
G1 X5 Y20 Z0.3 F5000.0 ; Move over to prevent blob squish
G21 ; set units to millimeters
G90 ; use absolute coordinates
M83 ; use relative distances for extrusion
; Filament gcode
M107
;LAYER_CHANGE
;Z:0.2
;HEIGHT:0.2
G1 E-1 F3600
G1 Z.2 F9000
G1 X70.907 Y91.759
G1 E1 F2400
M204 S500
;TYPE:Skirt/Brim
;WIDTH:0.42
G1 F900
G1 X72.052 Y90.927 E.04127
G1 X73.259 Y90.464 E.0377
G1 X74.5 Y90.311 E.03646
G1 X156.667 Y90.316 E2.39595
G1 X157.741 Y90.464 E.03161
G1 X158.456 Y90.696 E.02192
G1 X159.412 Y91.208 E.03162
G1 X160.093 Y91.759 E.02554
G1 X160.596 Y92.318 E.02193
G1 X161.168 Y93.239 E.03161
G1 X161.536 Y94.259 E.03162
G1 X161.684 Y95.333 E.03161
G1 X161.673 Y135.876 E1.18221
G1 X161.379 Y137.261 E.04129
G1 X160.792 Y138.412 E.03768
G1 X159.845 Y139.464 E.04127
G1 X158.948 Y140.073 E.03161
G1 X157.741 Y140.536 E.0377
G1 X156.5 Y140.689 E.03646
G1 X74.5 Y140.689 E2.39108
G1 X73.792 Y140.638 E.0207
G1 X73.057 Y140.482 E.02191
G1 X71.763 Y139.906 E.0413
G1 X70.759 Y139.093 E.03767
G1 X69.927 Y137.948 E.04127
G1 X69.464 Y136.741 E.0377
G1 X69.311 Y135.5 E.03646
G1 X69.316 Y95.333 E1.17125
G1 X69.518 Y94.057 E.03767
G1 X70.094 Y92.763 E.0413
G1 X70.869 Y91.806 E.03591
G1 E-1 F3600
; printing object Pullups - Lid.stl id:0 copy 0
G1 X118.09 Y109.059 F9000
G1 E1 F2400
;TYPE:Perimeter
;WIDTH:0.419999
G1 F1350
G1 X118.302 Y108.495 E.01757
G1 X118.619 Y107.862 E.02064
G1 X119 Y107.265 E.02065
G1 X119.442 Y106.712 E.02064
G1 X119.938 Y106.208 E.02062
G1 X120.485 Y105.758 E.02065
G1 X121.076 Y105.368 E.02065
G1 X121.704 Y105.042 E.02063
G1 X122.363 Y104.784 E.02064
G1 X123.046 Y104.596 E.02066
G1 X123.744 Y104.48 E.02063
G1 X124.469 Y104.437 E.02118
G1 X149.003 Y104.437 E.7154
G1 X149.658 Y104.47 E.01912
G1 X150.358 Y104.575 E.02064
G1 X150.936 Y104.725 E.01741
G1 X151.705 Y105.002 E.02383
G1 X152.338 Y105.319 E.02064
G1 X152.935 Y105.7 E.02065
G1 X153.488 Y106.142 E.02064
G1 X153.992 Y106.638 E.02062
G1 X154.442 Y107.185 E.02065
G1 X154.832 Y107.776 E.02065
G1 X155.158 Y108.404 E.02063
G1 X155.416 Y109.063 E.02064
G1 X155.604 Y109.746 E.02066
G1 X155.72 Y110.444 E.02063
G1 X155.763 Y111.169 E.02118
G1 X155.763 Y123.203 E.3509
G1 X155.73 Y123.858 E.01912
G1 X155.625 Y124.558 E.02064
G1 X155.447 Y125.243 E.02064
G1 X155.198 Y125.905 E.02062
G1 X154.881 Y126.538 E.02064
G1 X154.5 Y127.135 E.02065
G1 X154.058 Y127.688 E.02064
G1 X153.562 Y128.192 E.02062
G1 X153.015 Y128.642 E.02065
G1 X152.424 Y129.032 E.02065
G1 X151.938 Y129.285 E.01598
G1 X151.137 Y129.616 E.02527
G1 X150.454 Y129.804 E.02066
G1 X149.756 Y129.92 E.02063
G1 X149.031 Y129.963 E.02118
G1 X124.497 Y129.963 E.7154
G1 X123.842 Y129.93 E.01912
G1 X123.142 Y129.825 E.02064
G1 X122.457 Y129.647 E.02064
G1 X121.795 Y129.398 E.02062
G1 X121.162 Y129.081 E.02064
G1 X120.565 Y128.7 E.02065
G1 X120.012 Y128.258 E.02064
G1 X119.508 Y127.762 E.02062
G1 X119.058 Y127.215 E.02065
G1 X118.668 Y126.624 E.02065
G1 X118.342 Y125.996 E.02063
G1 X118.084 Y125.337 E.02064
G1 X117.896 Y124.654 E.02066
G1 X117.78 Y123.956 E.02063
G1 X117.738 Y123.253 E.02054
G1 X117.737 Y111.197 E.35155
G1 X117.77 Y110.542 E.01912
G1 X117.865 Y109.906 E.01875
G1 X118.053 Y109.157 E.02252
G1 X118.069 Y109.115 E.00131
G1 X118.441 Y109.194 F9000
G1 F1350
G1 X118.654 Y108.63 E.01758
G1 X118.955 Y108.033 E.0195
G1 X119.316 Y107.471 E.01948
G1 X119.735 Y106.949 E.01952
G1 X120.205 Y106.474 E.01949
G1 X120.723 Y106.051 E.0195
G1 X121.282 Y105.685 E.01948
G1 X121.876 Y105.378 E.0195
G1 X122.499 Y105.136 E.01949
G1 X123.143 Y104.96 E.01947
G1 X123.803 Y104.852 E.0195
G1 X124.481 Y104.814 E.0198
G1 X149.003 Y104.814 E.71505
G1 X149.638 Y104.846 E.01854
G1 X150.299 Y104.948 E.0195
G1 X150.838 Y105.089 E.01625
G1 X151.57 Y105.354 E.0227
G1 X152.167 Y105.655 E.0195
G1 X152.729 Y106.016 E.01948
G1 X153.251 Y106.435 E.01952
G1 X153.726 Y106.905 E.01949
G1 X154.149 Y107.423 E.0195
G1 X154.515 Y107.982 E.01948
G1 X154.822 Y108.576 E.0195
G1 X155.064 Y109.199 E.01949
G1 X155.24 Y109.843 E.01947
G1 X155.348 Y110.503 E.0195
G1 X155.386 Y111.181 E.0198
G1 X155.386 Y123.203 E.35055
G1 X155.354 Y123.838 E.01854
G1 X155.252 Y124.499 E.0195
G1 X155.082 Y125.145 E.01948
G1 X154.846 Y125.77 E.01948
G1 X154.545 Y126.367 E.0195
G1 X154.184 Y126.929 E.01948
G1 X153.765 Y127.451 E.01952
G1 X153.295 Y127.926 E.01949
G1 X152.777 Y128.349 E.0195
G1 X152.218 Y128.715 E.01948
G1 X151.766 Y128.949 E.01484
G1 X151.001 Y129.264 E.02412
G1 X150.357 Y129.44 E.01947
G1 X149.697 Y129.548 E.0195
G1 X149.019 Y129.586 E.0198
G1 X124.497 Y129.586 E.71505
G1 X123.862 Y129.554 E.01854
G1 X123.201 Y129.452 E.0195
G1 X122.555 Y129.282 E.01948
G1 X121.93 Y129.046 E.01948
G1 X121.333 Y128.745 E.0195
G1 X120.771 Y128.384 E.01948
G1 X120.249 Y127.965 E.01952
G1 X119.774 Y127.495 E.01949
G1 X119.351 Y126.977 E.0195
G1 X118.985 Y126.418 E.01948
G1 X118.678 Y125.824 E.0195
G1 X118.436 Y125.201 E.01949
G1 X118.26 Y124.557 E.01947
G1 X118.152 Y123.897 E.0195
G1 X118.114 Y123.233 E.01939
G1 X118.114 Y111.197 E.35096
G1 X118.146 Y110.562 E.01854
G1 X118.238 Y109.965 E.01761
G1 X118.418 Y109.255 E.02136
G1 X118.42 Y109.25 E.00016
G1 X118.791 Y109.328 F9000
;TYPE:External perimeter
G1 F900
G1 X119.006 Y108.765 E.01757
G1 X119.291 Y108.204 E.01835
G1 X119.633 Y107.676 E.01834
G1 X120.028 Y107.186 E.01835
G1 X120.472 Y106.741 E.01833
G1 X120.96 Y106.344 E.01834
G1 X121.487 Y106.001 E.01834
G1 X122.047 Y105.714 E.01835
G1 X122.634 Y105.488 E.01834
G1 X123.241 Y105.324 E.01833
G1 X123.862 Y105.225 E.01834
G1 X124.492 Y105.191 E.0184
G1 X149.003 Y105.191 E.71473
G1 X149.618 Y105.223 E.01796
G1 X150.24 Y105.32 E.01836
G1 X150.741 Y105.453 E.01511
G1 X151.435 Y105.706 E.02154
G1 X151.996 Y105.991 E.01835
G1 X152.524 Y106.333 E.01834
G1 X153.014 Y106.728 E.01835
G1 X153.459 Y107.172 E.01833
G1 X153.856 Y107.66 E.01834
G1 X154.199 Y108.187 E.01834
G1 X154.486 Y108.747 E.01835
G1 X154.712 Y109.334 E.01834
G1 X154.876 Y109.941 E.01833
G1 X154.975 Y110.562 E.01834
G1 X155.009 Y111.192 E.0184
G1 X155.009 Y123.203 E.35023
G1 X154.977 Y123.818 E.01796
G1 X154.88 Y124.44 E.01836
G1 X154.718 Y125.048 E.01835
G1 X154.494 Y125.635 E.01832
G1 X154.209 Y126.196 E.01835
G1 X153.867 Y126.724 E.01834
G1 X153.472 Y127.214 E.01835
G1 X153.028 Y127.659 E.01833
G1 X152.54 Y128.056 E.01834
G1 X152.013 Y128.399 E.01834
G1 X151.453 Y128.686 E.01835
G1 X150.866 Y128.912 E.01834
G1 X150.259 Y129.076 E.01833
G1 X149.638 Y129.175 E.01834
G1 X149.008 Y129.209 E.0184
G1 X124.497 Y129.209 E.71473
G1 X123.882 Y129.177 E.01796
G1 X123.26 Y129.08 E.01836
G1 X122.652 Y128.918 E.01835
G1 X122.065 Y128.694 E.01832
G1 X121.504 Y128.409 E.01835
G1 X120.976 Y128.067 E.01834
G1 X120.486 Y127.672 E.01835
G1 X120.041 Y127.228 E.01833
G1 X119.644 Y126.74 E.01834
G1 X119.301 Y126.213 E.01834
G1 X119.014 Y125.653 E.01835
G1 X118.788 Y125.066 E.01834
G1 X118.624 Y124.459 E.01833
G1 X118.525 Y123.838 E.01834
G1 X118.491 Y123.213 E.01825
G1 X118.491 Y111.197 E.35038
G1 X118.523 Y110.582 E.01796
G1 X118.61 Y110.024 E.01647
G1 X118.773 Y109.385 E.01923
G1 E-1 F3600
G1 X94.245 Y116.192 F9000
G1 E1 F2400
;TYPE:Perimeter
G1 F1350
G1 X94.364 Y117.139 E.02783
G1 X94.364 Y122.203 E.14766
G1 X94.338 Y122.703 E.0146
G1 X94.152 Y123.608 E.02694
G1 X93.757 Y124.544 E.02962
G1 X93.177 Y125.378 E.02962
G1 X92.436 Y126.073 E.02962
G1 X91.566 Y126.599 E.02964
G1 X90.607 Y126.932 E.0296
G1 X89.561 Y127.064 E.03074
G1 X86.997 Y127.064 E.07476
G1 X86.394 Y127.022 E.01763
G1 X85.592 Y126.852 E.02391
G1 X84.656 Y126.457 E.02962
G1 X83.822 Y125.877 E.02962
G1 X83.144 Y125.157 E.02884
G1 X82.603 Y124.27 E.0303
G1 X82.268 Y123.307 E.02973
G1 X82.136 Y122.261 E.03074
G1 X82.136 Y117.197 E.14766
G1 X82.178 Y116.594 E.01763
G1 X82.348 Y115.792 E.02391
G1 X82.743 Y114.856 E.02962
G1 X83.323 Y114.022 E.02962
G1 X84.064 Y113.327 E.02962
G1 X84.934 Y112.801 E.02964
G1 X85.632 Y112.552 E.02161
G1 X86.086 Y112.427 E.01373
G1 X86.947 Y112.336 E.02525
G1 X89.503 Y112.336 E.07453
G1 X90.033 Y112.365 E.01548
G1 X90.908 Y112.548 E.02607
G1 X91.844 Y112.943 E.02962
G1 X92.678 Y113.523 E.02962
G1 X93.373 Y114.264 E.02962
G1 X93.762 Y114.896 E.02164
G1 X93.979 Y115.314 E.01373
G1 X94.232 Y116.093 E.02388
G1 X94.237 Y116.132 E.00115
G1 X93.881 Y116.269 F9000
G1 F1350
G1 X93.987 Y117.164 E.02628
G1 X93.987 Y122.203 E.14693
G1 X93.953 Y122.728 E.01534
G1 X93.783 Y123.529 E.02388
G1 X93.413 Y124.391 E.02735
G1 X92.872 Y125.157 E.02735
G1 X92.184 Y125.793 E.02732
G1 X91.378 Y126.272 E.02734
G1 X90.49 Y126.574 E.02735
G1 X89.536 Y126.687 E.02801
G1 X86.997 Y126.687 E.07404
G1 X86.472 Y126.653 E.01534
G1 X85.671 Y126.483 E.02388
G1 X84.809 Y126.113 E.02735
G1 X84.043 Y125.572 E.02735
G1 X83.424 Y124.905 E.02653
G1 X82.929 Y124.08 E.02805
G1 X82.626 Y123.19 E.02741
G1 X82.513 Y122.236 E.02801
G1 X82.513 Y117.197 E.14693
G1 X82.547 Y116.672 E.01534
G1 X82.717 Y115.871 E.02388
G1 X83.087 Y115.009 E.02735
G1 X83.628 Y114.243 E.02735
G1 X84.316 Y113.607 E.02732
G1 X85.122 Y113.128 E.02734
G1 X86.125 Y112.802 E.03075
G1 X86.967 Y112.713 E.02469
G1 X89.503 Y112.713 E.07395
G1 X90.008 Y112.743 E.01475
G1 X90.829 Y112.917 E.02447
G1 X91.691 Y113.287 E.02735
G1 X92.457 Y113.828 E.02735
G1 X93.093 Y114.516 E.02732
G1 X93.621 Y115.43 E.03078
G1 X93.874 Y116.21 E.02391
G1 X93.517 Y116.346 F9000
;TYPE:External perimeter
G1 F900
G1 X93.61 Y117.186 E.02464
G1 X93.61 Y122.203 E.14629
G1 X93.585 Y122.649 E.01303
G1 X93.414 Y123.451 E.02391
G1 X93.068 Y124.237 E.02504
G1 X92.567 Y124.935 E.02505
G1 X91.931 Y125.513 E.02506
G1 X91.189 Y125.946 E.02505
G1 X90.374 Y126.215 E.02503
G1 X89.514 Y126.31 E.02523
G1 X86.997 Y126.31 E.07339
G1 X86.551 Y126.285 E.01303
G1 X85.749 Y126.114 E.02391
G1 X84.963 Y125.768 E.02504
G1 X84.265 Y125.267 E.02505
G1 X83.704 Y124.652 E.02427
G1 X83.255 Y123.89 E.02579
G1 X82.985 Y123.074 E.02506
G1 X82.89 Y122.214 E.02523
G1 X82.89 Y117.197 E.14629
G1 X82.915 Y116.751 E.01303
G1 X83.086 Y115.949 E.02391
G1 X83.432 Y115.163 E.02504
G1 X83.933 Y114.465 E.02505
G1 X84.569 Y113.887 E.02506
G1 X85.311 Y113.454 E.02505
G1 X86.165 Y113.177 E.02618
G1 X86.987 Y113.09 E.0241
G1 X89.503 Y113.09 E.07337
G1 X89.949 Y113.115 E.01303
G1 X90.751 Y113.286 E.02391
G1 X91.537 Y113.632 E.02504
G1 X92.235 Y114.133 E.02505
G1 X92.813 Y114.769 E.02506
G1 X93.262 Y115.547 E.02619
G1 X93.503 Y116.288 E.02272
G1 E-1 F3600
G1 X73.613 Y135.689 F9000
G1 E1 F2400
;TYPE:Perimeter
G1 F1350
G1 X73.564 Y135.447 E.0072
G1 X73.564 Y95.384 E1.16821
G1 X73.751 Y94.956 E.01362
G1 X74.038 Y94.7 E.01121
G1 X74.208 Y94.634 E.00532
G1 X74.553 Y94.564 E.01026
G1 X156.432 Y94.574 E2.38755
G1 X156.902 Y94.664 E.01395
G1 X157.191 Y94.877 E.01047
G1 X157.375 Y95.189 E.01056
G1 X157.436 Y95.663 E.01394
G1 X157.436 Y135.616 E1.16501
G1 X157.249 Y136.044 E.01362
G1 X156.962 Y136.3 E.01121
G1 X156.792 Y136.365 E.00531
G1 X156.447 Y136.436 E.01027
G1 X74.664 Y136.436 E2.38475
G1 X74.19 Y136.375 E.01394
G1 X73.974 Y136.262 E.00711
G1 X73.7 Y135.962 E.01185
G1 X73.634 Y135.79 E.00537
G1 X73.625 Y135.747 E.00128
G1 X73.272 Y135.899 F9000
G1 F1350
G1 X73.218 Y135.757 E.00443
G1 X73.187 Y135.467 E.0085
G1 X73.187 Y95.607 E1.1623
G1 X73.218 Y95.242 E.01068
G1 X73.446 Y94.735 E.01621
G1 X73.847 Y94.369 E.01583
G1 X74.243 Y94.218 E.01236
G1 X74.533 Y94.187 E.0085
G1 X156.608 Y94.197 E2.39326
G1 X156.907 Y94.275 E.00901
G1 X157.27 Y94.441 E.01164
G1 X157.548 Y94.727 E.01163
G1 X157.739 Y95.082 E.01175
G1 X157.813 Y95.663 E.01708
G1 X157.813 Y135.393 E1.1585
G1 X157.782 Y135.758 E.01068
G1 X157.554 Y136.265 E.01621
G1 X157.153 Y136.631 E.01583
G1 X156.757 Y136.782 E.01236
G1 X156.467 Y136.813 E.0085
G1 X74.664 Y136.813 E2.38533
G1 X74.339 Y136.78 E.00953
G1 X73.95 Y136.681 E.0117
G1 X73.636 Y136.482 E.01084
G1 X73.369 Y136.153 E.01236
G1 X73.293 Y135.955 E.00618
G1 X72.913 Y136.016 F9000
;TYPE:External perimeter
G1 F900
G1 X72.848 Y135.846 E.00531
G1 X72.81 Y135.486 E.01056
G1 X72.81 Y95.607 E1.16285
G1 X72.848 Y95.154 E.01326
G1 X73.04 Y94.652 E.01567
G1 X73.242 Y94.374 E.01002
G1 X73.656 Y94.039 E.01553
G1 X74.154 Y93.848 E.01555
G1 X74.514 Y93.81 E.01056
G1 X156.657 Y93.82 E2.39524
G1 X157.192 Y93.96 E.01613
G1 X157.606 Y94.236 E.01451
G1 X157.872 Y94.531 E.01158
G1 X158.104 Y94.974 E.01458
G1 X158.19 Y95.663 E.02025
G1 X158.19 Y135.393 E1.1585
G1 X158.152 Y135.846 E.01326
G1 X157.96 Y136.348 E.01567
G1 X157.758 Y136.626 E.01002
G1 X157.344 Y136.961 E.01553
G1 X156.846 Y137.152 E.01555
G1 X156.486 Y137.19 E.01056
G1 X74.519 Y137.19 E2.39011
G1 X73.974 Y137.104 E.01609
G1 X73.797 Y137.025 E.00565
G1 X73.374 Y136.758 E.01459
G1 X73.039 Y136.344 E.01553
G1 X72.934 Y136.072 E.0085
G1 E-1 F3600
G1 X156.063 Y94.694 F9000
G1 E1 F2400
;TYPE:Solid infill
;WIDTH:0.420243
G1 F1260
G1 X157.145 Y95.777 E.04467
G1 X157.145 Y96.31 E.01555
G1 X155.699 Y94.864 E.05967
G1 X155.166 Y94.864 E.01555
G1 X157.145 Y96.844 E.08168
G1 X157.145 Y97.377 E.01555
G1 X154.632 Y94.864 E.1037
G1 X154.098 Y94.864 E.01558
G1 X157.145 Y97.911 E.12573
G1 X157.145 Y98.445 E.01558
G1 X153.565 Y94.864 E.14775
G1 X153.031 Y94.864 E.01558
G1 X157.145 Y98.978 E.16976
G1 X157.145 Y99.512 E.01558
G1 X152.497 Y94.864 E.1918
G1 X151.964 Y94.864 E.01555
G1 X157.145 Y100.046 E.21381
G1 X157.145 Y100.579 E.01555
G1 X151.43 Y94.864 E.23583
G1 X150.896 Y94.864 E.01558
G1 X157.145 Y101.113 E.25786
G1 X157.145 Y101.646 E.01555
G1 X150.363 Y94.863 E.27988
G1 X149.829 Y94.863 E.01558
G1 X157.145 Y102.18 E.30191
G1 X157.145 Y102.714 E.01558
G1 X149.295 Y94.863 E.32395
G1 X148.762 Y94.863 E.01555
G1 X157.145 Y103.247 E.34594
G1 X157.145 Y103.781 E.01558
G1 X148.228 Y94.863 E.36798
G1 X147.694 Y94.863 E.01558
G1 X157.145 Y104.314 E.38999
G1 X157.145 Y104.848 E.01558
G1 X147.161 Y94.863 E.412
G1 X146.627 Y94.863 E.01558
G1 X157.145 Y105.382 E.43404
G1 X157.145 Y105.915 E.01555
G1 X146.093 Y94.863 E.45605
G1 X145.56 Y94.863 E.01555
G1 X157.145 Y106.449 E.47807
G1 X157.145 Y106.983 E.01558
G1 X145.026 Y94.863 E.5001
G1 X144.492 Y94.863 E.01558
G1 X157.145 Y107.516 E.52212
G1 X157.145 Y108.05 E.01558
G1 X143.958 Y94.863 E.54415
G1 X143.425 Y94.863 E.01555
G1 X157.145 Y108.583 E.56615
G1 X157.145 Y109.117 E.01558
G1 X142.891 Y94.863 E.58818
G1 X142.357 Y94.863 E.01558
G1 X152.711 Y105.216 E.42723
G1 X153.194 Y105.529 E.01679
G1 X153.764 Y105.999 E.02156
G1 X154.281 Y106.526 E.02154
G1 X154.741 Y107.103 E.02153
G1 X154.992 Y107.497 E.01363
G1 X157.145 Y109.651 E.08886
G1 X157.145 Y110.184 E.01555
G1 X155.539 Y108.577 E.06629
G1 X155.726 Y109.078 E.0156
G1 X155.803 Y109.375 E.00895
G1 X157.145 Y110.718 E.0554
G1 X157.145 Y111.251 E.01555
G1 X155.95 Y110.056 E.04931
